!!!!SEGMENT: pl-sa--245-a-vii-5_boczkowski-kazimierz--veni-sancte-spiritus-et-emitte.krn
!!!cenid: 17xx:317
!!!COM: Boczkowski, Kazimierz
!!!COM-rismID: pe30040643
!!!CDT: ~1650-~1749
!!!CNT: Polish
!!!OTL: Veni Sancte Spiritus et emitte
!!!PDT: 1700
!!!AGN: Sacred
!!!YEC: Copyright 2022 Narodowy Instytut Fryderyka Chopina (https://polishscores.org)
!!!YEM: License CC-BY-4.0 (https://creativecommons.org/licenses/by/4.0)
!!!SMS-siglum: PL-SA
!!!SMS-shelfmark: 245/A VII 5
!!!SMS-shelfwork: W
!!!NIFC-rismSourceID: 1001035393
!!!NIFC-rismChildID: 1001035393
!!!NIFC-islandoraID: none
!!!URL-pdf-islandora:
!!!URL-scan: https://bc.bdsandomierz.pl/dlibra/publication/1597/edition/1565/content @EN{Scan in the Sandomierz Diocese Digital Library} @PL{Skany w portalu Cyfrowa Biblioteka Diecezjalna w Sandomierzu}
!!!IIIF:
!!!ONB-nifc: nie uwzględniać dodatkowej partii organów "Pro Organo Transponowane"
!!!AIN: 9 empty 1 vox
!!!key:
**kern	**fba	**kern	**kern	**kern	**kern	**text	**kern	**text	**kern	**text	**kern	**text	**kern	**kern
*part10	*	*part9	*part8	*part7	*part6	*	*part5	*	*part4	*	*part3	*	*part2	*part1
*staff10	*	*staff9	*staff8	*staff7	*staff6	*	*staff5	*	*staff4	*	*staff3	*	*staff2	*staff1
*Iempty	*	*Iempty	*Iempty	*Iempty	*Iempty	*	*Iempty	*	*Iempty	*	*Ivox	*	*Iempty	*Iempty
*I"Baſso	*	*I"Viollone	*I"Viol[i]no 2do.	*I"Viol[i]no 1mo	*I"Baſso.	*	*I"	*	*I"Allitto	*	*I"Canto.	*	*I"Clarino 2do Gallico	*I"Clarino 1mo Gallico
*mI"Basso [cont]	*	*mI"Violone	*mI"Violino II	*mI"Violino I	*mI"Basso	*	*mI"Tenore	*	*mI"Alto	*	*mI"Soprano	*	*mI"Clarino II Gallico	*mI"Clarino I Gallico
*I'org	*	*I'vlne	*I'vl 2	*I'vl 1	*I'B	*	*I'	*	*I'A	*	*I'S	*	*I'clno 2	*I'clno 1
*	*	*	*	*	*	*	*mI'T	*	*	*	*	*	*mI'clno II	*mI'clno I
*clefF4	*	*clefF4	*clefG2	*clefG2	*clefF4	*	*clefC4	*	*clefC3	*	*clefC1	*	*clefG2	*clefG2
*	*	*	*	*	*	*	*mclefGv2	*	*mclefG2	*	*mclefG2	*	*	*
*	*	*	*	*	*	*	*	*	*	*	*	*	*ITrd-1c-2	*ITrd-1c-2
*k[f#c#]	*	*k[f#c#]	*k[f#c#]	*k[f#c#]	*k[f#c#]	*	*k[f#c#]	*	*k[f#c#]	*	*k[f#c#]	*	*k[f#c#]	*k[f#c#]
*D:	*	*D:	*D:	*D:	*D:	*	*D:	*	*D:	*	*D:	*	*D:	*D:
*M2/2	*	*M2/2	*M2/2	*M2/2	*M2/2	*	*M2/2	*	*M2/2	*	*M2/2	*	*M2/2	*M2/2
*met(c|)	*	*met(c|)	*met(c|)	*met(c|)	*met(c|)	*	*met(c|)	*	*met(c|)	*	*met(c|)	*	*met(c|)	*met(c|)
=1	=1	=1	=1	=1	=1	=1	=1	=1	=1	=1	=1	=1	=1	=1
!!!OMD:
!!!OMD-mod: Largo
!	!	!	!	!	!	!	!	!	!	!	!	!	!	!LO:SIC:s:t=:v: instrument naturalnym, często pojawiają się dźwięki niepasujące do harmonii (np. trąbki mają swoje f (=g), a reszta gis)
!LO:TX:a:t=P:problem=dodatkowa, przetransponowana partia organów	!	!	!	!	!	!	!	!	!	!	!	!	!	!
!LO:SIC:s:t=:v: kreski między częściami według stanu w większości partii (wyjątki z notatką)	!	!	!	!	!	!	!	!	!	!	!	!	!	!LO:SIC:o=:v: oznaczenia metrum poszczególnych części wpisane według partii basu instrumentalnego (wyjątki z notatką)
!LO:SIC:s:t=:v: oznaczenia metrum poszczególnych części wpisane według tej partii ((wyjątki z notatką)	!	!	!LO:TX:a:t=adagio:mod=	!	!LO:TX:b:t=Largo:mod=	!	!	!	!LO:TX:b:t=Sym&colon;(fonia) præſto:mod=	!	!	!	!LO:TX:b:t=Sonatella a 8:mod=	!LO:SIC:o=:v:kreski między częściami według stanu w większości partii (wyjątki z notatką)
!LO:TX:b:t=Symphonia Largo a6.:mod=	!	!LO:TX:b:t=Symfonia a4:mod=	!LO:TX:b:t=Symfonia:mod=	!LO:TX:b:t=Symfonia a 4:mod=	!LO:TX:a:t=Violini:mod=	!	!LO:TX:b:t=Violi:mod=:mod=	!	!LO:SIC:s:t=:v: na okładce zwykła nazwa partii (Alto), w głosie "Allitto" (?)	!	!LO:SIC:s:t=:v: krzyżyki F#, c#, f# jeden nad drugim (wszystkie głosy poza clarini)	!	!LO:TX:a:t=Largo:mod=	!LO:TX:b:t=Sonatella a 8:mod=
4d\	.	4d\	4f#/	4d/	00r	.	00r	.	00r	.	00r	.	8dd\L	4dd\
.	.	.	.	.	.	.	.	.	.	.	.	.	8a\J	.
4c#\	.	4c#\	4a/	4e/	.	.	.	.	.	.	.	.	8ee\L	8r
.	.	.	.	.	.	.	.	.	.	.	.	.	8a\J	8ee\
!	!	!	!LO:TX:a:t=P:problem=mixed beam	!	!	!	!	!	!	!	!	!	!	!
4B\	6	8B\L	8d/L	16f#/LL	.	.	.	.	.	.	.	.	8f#/L	16dd\LL
.	.	.	.	16a/	.	.	.	.	.	.	.	.	.	16ee\
.	3	16A\L	8dd/J	16f#/	.	.	.	.	.	.	.	.	8d/J	16ff#\
.	.	16G\JJ	.	16d/JJ	.	.	.	.	.	.	.	.	.	16gg\JJ
8F#\L	.	8F#\L	8a/L	8dd\L	.	.	.	.	.	.	.	.	4r	8aa\L
8G\J	.	16G\L	8b/J	16ee\L	.	.	.	.	.	.	.	.	.	16gg\L
.	.	16A\JJ	.	16dd\JJ	.	.	.	.	.	.	.	.	.	16ff#\JJ
=2	=2	=2	=2	=2	=2	=2	=2	=2	=2	=2	=2	=2	=2	=2
!	!	!	!	!	!	!	!	!	!	!	!	!	!LO:TX:a:t=P:problem=mixed beam	!LO:TX:a:t=P:problem=mixed beam
8A\L	.	8A\L	4e/	8.cc#\L	.	.	.	.	.	.	.	.	8a/L	8ee\L
8G\	.	8G\J	.	.	.	.	.	.	.	.	.	.	16ff#\L	8a/J
.	.	.	.	16b\Jk	.	.	.	.	.	.	.	.	16gg\JJ	.
!	!	!	!LO:TX:a:t=P:problem=mixed beam	!	!	!	!	!	!	!	!	!	!	!
8F#\	.	8F#\L	8f#/L	8a/L	.	.	.	.	.	.	.	.	8aa\L	8ff#\L
16E\L	.	16E\L	8dd/J	16g/L	.	.	.	.	.	.	.	.	16gg\L	16ee\L
16D\JJ	.	16D\JJ	.	16f#/JJ	.	.	.	.	.	.	.	.	16ff#\JJ	16dd\JJ
!LO:TX:a:t=P:problem=mixed beam	!	!	!	!	!	!	!	!	!	!	!	!	!	!
8A\L	.	4A\	16a/LL	4e/	.	.	.	.	.	.	.	.	4ee\	4a/
.	.	.	16b/	.	.	.	.	.	.	.	.	.	.	.
8AA/	.	.	16a/	.	.	.	.	.	.	.	.	.	.	.
.	.	.	16g/JJ	.	.	.	.	.	.	.	.	.	.	.
!	!	!	!	!LO:TX:a:t=P:problem=mixed beam	!	!	!	!	!	!	!	!	!	!
8D/	.	8D\L	8f#/L	8d/L	.	.	.	.	.	.	.	.	4r	4r
!	!	!LO:SIC:o=8D\J	!	!	!	!	!	!	!	!	!	!	!	!
8C#/J	.	8C#J	8a/J	8ff#/J	.	.	.	.	.	.	.	.	.	.
=3	=3	=3	=3	=3	=3	=3	=3	=3	=3	=3	=3	=3	=3	=3
4BB/	# 6	4BB/	16dd\LL	4gg#X\	.	.	.	.	.	.	.	.	1r	1r
.	.	.	16cc#\	.	.	.	.	.	.	.	.	.	.	.
.	.	.	16dd\	.	.	.	.	.	.	.	.	.	.	.
.	.	.	16ee\JJ	.	.	.	.	.	.	.	.	.	.	.
4AA/	.	4AA/	16cc#\LL	4aa\	.	.	.	.	.	.	.	.	.	.
.	.	.	16dd\	.	.	.	.	.	.	.	.	.	.	.
.	.	.	16ee\	.	.	.	.	.	.	.	.	.	.	.
.	.	.	16ff#\JJ	.	.	.	.	.	.	.	.	.	.	.
!LO:TX:a:t=P:problem=mixed beam	!	!	!	!	!	!	!	!	!	!	!	!	!	!
8E\L	#	8E\L	8gg#X\	16bb\LL	.	.	.	.	.	.	.	.	.	.
.	.	.	.	16aa\	.	.	.	.	.	.	.	.	.	.
8D#X\	7 5	8D#X\J	4aa\	16bb\	.	.	.	.	.	.	.	.	.	.
.	.	.	.	16ccc#\JJ	.	.	.	.	.	.	.	.	.	.
!	!	!LO:TX:a:t=P:problem=mixed beam	!	!	!	!	!	!	!	!	!	!	!	!
8E\	4	8E\L	.	8.bb\L	.	.	.	.	.	.	.	.	.	.
8EE/J	3	8EE/J	8gg#X\	.	.	.	.	.	.	.	.	.	.	.
.	.	.	.	16aa\Jk	.	.	.	.	.	.	.	.	.	.
=4	=4	=4	=4	=4	=4	=4	=4	=4	=4	=4	=4	=4	=4	=4
8AA/L	.	8AA/L	8aa\L	4aa\	.	.	.	.	.	.	.	.	4a/	4ee\
8BB/	.	8BB/	8ee\J	.	.	.	.	.	.	.	.	.	.	.
8C#/	.	8C#/	16ee\LL	8r	.	.	.	.	.	.	.	.	8r	8r
.	.	.	16gg\	.	.	.	.	.	.	.	.	.	.	.
8AA/J	.	8AA/J	16ff#\	8cc#\	.	.	.	.	.	.	.	.	8a/	8ee\
.	.	.	16ee\JJ	.	.	.	.	.	.	.	.	.	.	.
4D/	.	8D/L	8dd\L	8a\L	.	.	.	.	.	.	.	.	8dd\L	8ff#\L
.	.	8DD/J	8a\	16ff#\L	.	.	.	.	.	.	.	.	8ff#\J	8aa\J
.	.	.	.	16gg\JJ	.	.	.	.	.	.	.	.	.	.
8r	.	8r	8ff#\	8aa\L	.	.	.	.	.	.	.	.	16dd\LL	16ff#\LL
.	.	.	.	.	.	.	.	.	.	.	.	.	16a\	16ee\
8D/	.	8D\	8ff#\J	8aa\J	.	.	.	.	.	.	.	.	16dd\	16ff#\
.	.	.	.	.	.	.	.	.	.	.	.	.	16ee\JJ	16gg\JJ
=5	=5	=5	=5	=5	=5	=5	=5	=5	=5	=5	=5	=5	=5	=5
8F#\L	6	8F#\L	4dd\	8aa\L	00r	.	00r	.	00r	.	00r	.	4ff#\	4aa\
!	!	!	!	!LO:SIC:o=16gg\L	!	!	!	!	!	!	!	!	!	!
8G#X\J	.	8G#X\J	.	16gg#	.	.	.	.	.	.	.	.	.	.
.	.	.	.	16ff#\JJ	.	.	.	.	.	.	.	.	.	.
16A\LL	.	16A\LL	8r	16ee\LL	.	.	.	.	.	.	.	.	4r	4r
16B\	.	16B\	.	16dd\	.	.	.	.	.	.	.	.	.	.
16A\	.	16A\	8ee\	16cc#\	.	.	.	.	.	.	.	.	.	.
16G#\JJ	.	16G#\JJ	.	16b\JJ	.	.	.	.	.	.	.	.	.	.
!LO:TX:a:t=P:problem=mixed beam	!	!LO:TX:a:t=P:problem=mixed beam	!	!	!	!	!	!	!	!	!	!	!	!
8F#\L	6	8F#\L	16ff#\LL	8a/	.	.	.	.	.	.	.	.	8aa\L	8ff#\L
.	.	.	16aa\	.	.	.	.	.	.	.	.	.	.	.
8B\	-	8B\	16gg\	4dd\	.	.	.	.	.	.	.	.	16gg\L	16ee\L
.	.	.	16ff#\JJ	.	.	.	.	.	.	.	.	.	16ff#\JJ	16dd\JJ
!	!	!	!	!	!	!	!	!	!	!	!	!	!	!LO:TX:a:t=P:problem=mixed beam
8A\	.	8A\	4ee\	.	.	.	.	.	.	.	.	.	4ee\	8aa\L
8AA/J	.	8AA/J	.	8cc#\	.	.	.	.	.	.	.	.	.	8a/J
!	!	!LO:LB:g=original	!	!	!	!	!	!	!	!	!	!	!	!LO:LB:g=original
=6	=6	=6	=6	=6	=6	=6	=6	=6	=6	=6	=6	=6	=6	=6
4D/	.	4D\	8dd\L	16dd\LL	.	.	.	.	.	.	.	.	8ff#\	8dd\L
.	.	.	.	16ee\	.	.	.	.	.	.	.	.	.	.
.	.	.	8a\J	16dd\	.	.	.	.	.	.	.	.	8r	8a\J
.	.	.	.	16ee\JJ	.	.	.	.	.	.	.	.	.	.
4r	.	4r	16dd\LL	16ff#\LL	.	.	.	.	.	.	.	.	8dd\L	16dd\LL
.	.	.	16ee\	16gg\	.	.	.	.	.	.	.	.	.	16ee\
.	.	.	16dd\	16ff#\	.	.	.	.	.	.	.	.	8a\J	16ff#\
.	.	.	16ee\JJ	16gg\JJ	.	.	.	.	.	.	.	.	.	16gg\JJ
!LO:LB:g=original	!	!	!	!	!	!	!	!	!	!	!	!	!LO:LB:g=original	!
16D\LL	.	16D\LL	16ff#\LL	4aa\	.	.	.	.	.	.	.	.	8ff#\L	8aa\L
16E\	.	16E\	16gg\	.	.	.	.	.	.	.	.	.	.	.
16D\	.	16D\	16ff#\	.	.	.	.	.	.	.	.	.	8dd\J	8ff#\J
16E\	.	16E\	16gg\JJ	.	.	.	.	.	.	.	.	.	.	.
16F#\	.	16F#\	8aa\L	8r	.	.	.	.	.	.	.	.	4r	4r
16G\	.	16G\	.	.	.	.	.	.	.	.	.	.	.	.
16F#\	.	16F#\	16gg\L	8dd\	.	.	.	.	.	.	.	.	.	.
16G\JJ	.	16G\JJ	16ff#\JJ	.	.	.	.	.	.	.	.	.	.	.
=7	=7	=7	=7	=7	=7	=7	=7	=7	=7	=7	=7	=7	=7	=7
!	!	!LO:TX:a:t=P:problem=mixed beam	!	!	!	!	!	!	!	!	!	!	!	!
4A\	.	8A\L	16ee\LL	16cc#\LL	.	.	.	.	.	.	.	.	4a/	4ee\
.	.	.	16dd\	16b\	.	.	.	.	.	.	.	.	.	.
.	.	8AA/J	16cc#\	16a\	.	.	.	.	.	.	.	.	.	.
.	.	.	16dd\JJ	16b\JJ	.	.	.	.	.	.	.	.	.	.
8r	.	8r	8ee\L	16cc#\LL	.	.	.	.	.	.	.	.	4r	4r
.	.	.	.	16dd\	.	.	.	.	.	.	.	.	.	.
8F#\	.	8F#\	8aa\J	16ee\	.	.	.	.	.	.	.	.	.	.
.	.	.	.	16ff#\JJ	.	.	.	.	.	.	.	.	.	.
!	!	!LO:TX:a:t=P:problem=mixed beam	!	!	!	!	!	!	!	!	!	!	!	!
4E\	6	8E\L	8b\L	8gg\L	.	.	.	.	.	.	.	.	4ee\	4gg\
.	.	8EE/J	16cc#\L	16ff#\L	.	.	.	.	.	.	.	.	.	.
.	.	.	16dd\JJ	16gg\JJ	.	.	.	.	.	.	.	.	.	.
8r	.	8r	8ee\L	16aa\LL	.	.	.	.	.	.	.	.	4r	4r
.	.	.	.	16bb\	.	.	.	.	.	.	.	.	.	.
8C#/	.	8C#/	16ff#\L	16aa\	.	.	.	.	.	.	.	.	.	.
.	.	.	16ee\JJ	16gg\JJ	.	.	.	.	.	.	.	.	.	.
=8	=8	=8	=8	=8	=8	=8	=8	=8	=8	=8	=8	=8	=8	=8
16D/LL	.	16D/LL	4a/	8ff#\L	.	.	.	.	.	.	.	.	4ff#\	4aa\
16C#/	.	16C#/	.	.	.	.	.	.	.	.	.	.	.	.
16BB/	.	16BB/	.	8dd\J	.	.	.	.	.	.	.	.	.	.
16C#/JJ	.	16C#/	.	.	.	.	.	.	.	.	.	.	.	.
16D\LL	.	16D/	8r	8r	.	.	.	.	.	.	.	.	4r	4r
16E\	.	16E/	.	.	.	.	.	.	.	.	.	.	.	.
16F#\	.	16F#/	16ff#\LL	8a/	.	.	.	.	.	.	.	.	.	.
16D\JJ	.	16D/JJ	16ee\JJ	.	.	.	.	.	.	.	.	.	.	.
!LO:TX:a:t=P:problem=mixed beam	!	!	!	!	!	!	!	!	!	!	!	!	!	!
8GG/L	.	16G\LL	4dd\	4b/	.	.	.	.	.	.	.	.	4gg\	4bb\
.	.	16A\	.	.	.	.	.	.	.	.	.	.	.	.
16G\L	.	16G\	.	.	.	.	.	.	.	.	.	.	.	.
16F#\JJ	.	16F#\JJ	.	.	.	.	.	.	.	.	.	.	.	.
!	!	!LO:TX:a:t=P:problem=mixed beam	!	!	!	!	!	!	!	!	!	!	!	!
4E\	-3	8E\L	8r	16r	.	.	.	.	.	.	.	.	4r	4r
.	.	.	.	16gg\LL	.	.	.	.	.	.	.	.	.	.
.	.	8EE/J	16ee\LL	16ff#\	.	.	.	.	.	.	.	.	.	.
.	.	.	16dd\JJ	16gg\JJ	.	.	.	.	.	.	.	.	.	.
=9	=9	=9	=9	=9	=9	=9	=9	=9	=9	=9	=9	=9	=9	=9
8r	.	8r	4cc#\	4ee\	0r	.	0r	.	0r	.	0r	.	4a/	4ee\
16A\LL	.	16A\LL	.	.	.	.	.	.	.	.	.	.	.	.
16G\JJ	.	16G\JJ	.	.	.	.	.	.	.	.	.	.	.	.
4F#\	6	4F#\	8r	16r	.	.	.	.	.	.	.	.	4r	4r
.	.	.	.	16aa\LL	.	.	.	.	.	.	.	.	.	.
.	.	.	16ff#\LL	16gg\	.	.	.	.	.	.	.	.	.	.
.	.	.	16ee\JJ	16aa\JJ	.	.	.	.	.	.	.	.	.	.
8r	.	8r	4dd\	4ff#\	.	.	.	.	.	.	.	.	4dd\	4ff#\
16B\LL	-3	16B\LL	.	.	.	.	.	.	.	.	.	.	.	.
16A\JJ	.	16A\JJ	.	.	.	.	.	.	.	.	.	.	.	.
8G\L	.	8G\L	8r	8r	.	.	.	.	.	.	.	.	4r	4r
!	!	!	!	!LO:SIC:o=16gg\LL	!	!	!	!	!	!	!	!	!	!
8G#X\J	.	16F#\L	16ee\LL	16gg#LL	.	.	.	.	.	.	.	.	.	.
.	.	16G#X\JJ	16dd\JJ	16ff#\JJ	.	.	.	.	.	.	.	.	.	.
=10	=10	=10	=10	=10	=10	=10	=10	=10	=10	=10	=10	=10	=10	=10
!LO:TX:a:t=P:problem=mixed beam	!	!LO:TX:a:t=P:problem=mixed beam	!	!	!	!	!	!	!	!	!	!	!	!
8A\L	.	8A\L	8cc#\L	16ee\LL	.	.	.	.	.	.	.	.	16a/LL	16ee\LL
.	.	.	.	16ee\	.	.	.	.	.	.	.	.	16a/	16ee\
8AA/	.	16AA/L	8dd\J	16ff#\	.	.	.	.	.	.	.	.	16a/	16ee\
.	.	16BB/JJ	.	16gg\JJ	.	.	.	.	.	.	.	.	16a/JJ	16ee\JJ
8C#/	.	8C#/L	16ee\LL	16aa\LL	.	.	.	.	.	.	.	.	8dd\L	16aa\LL
.	.	.	16a\	16cc#\	.	.	.	.	.	.	.	.	.	16gg\
8AA/J	.	8AA/J	16b\	16dd\	.	.	.	.	.	.	.	.	8a\J	16aa\
.	.	.	16cc#\JJ	16ee\JJ	.	.	.	.	.	.	.	.	.	16ee\JJ
!	!	!	!	!LO:TX:a:t=P:problem=mixed beam	!	!	!	!	!	!	!	!	!	!
4D\	.	4D/	16dd\LL	16ff#\LL	.	.	.	.	.	.	.	.	8dd\L	8ff#\L
.	.	.	16cc#\	16a\	.	.	.	.	.	.	.	.	.	.
.	.	.	16dd\	16b\	.	.	.	.	.	.	.	.	8ff#\	8dd\J
.	.	.	16ee\JJ	16cc#\JJ	.	.	.	.	.	.	.	.	.	.
8r	.	8r	16ff#\LL	16dd/LL	.	.	.	.	.	.	.	.	8aa\	8r
.	.	.	16a\	16f#/	.	.	.	.	.	.	.	.	.	.
8F#\	.	8F#\	16b\	16g/	.	.	.	.	.	.	.	.	8dd\J	8a/
.	.	.	16cc#\JJ	16a/JJ	.	.	.	.	.	.	.	.	.	.
!LO:LB:g=original	!	!LO:LB:g=original	!	!	!	!	!	!	!	!	!	!	!	!
=11	=11	=11	=11	=11	=11	=11	=11	=11	=11	=11	=11	=11	=11	=11
!LO:TX:a:t=P:problem=mixed beam	!	!	!	!	!	!	!	!	!	!	!	!	!	!
8G\L	.	8G\L	16dd\LL	8b\L	1r	.	1r	.	1r	.	1r	.	16gg\LL	8f#/L
.	.	.	16aa\	.	.	.	.	.	.	.	.	.	16aa\	.
16A\L	.	16A\L	16gg\	8dd\	.	.	.	.	.	.	.	.	16ff#\	8d/J
16B\J	.	16B\JJ	16ff#\JJ	.	.	.	.	.	.	.	.	.	16gg\JJ	.
!	!	!LO:TX:a:t=P:problem=mixed beam	!	!	!	!	!	!	!	!	!	!	!	!
8A\	.	8A\L	4ee\	8.dd\	.	.	.	.	.	.	.	.	4ee\	4a/
8AA/J	.	8AA/J	.	.	.	.	.	.	.	.	.	.	.	.
.	.	.	.	16cc#\Jk	.	.	.	.	.	.	.	.	.	.
!	!	!	!	!	!	!	!	!	!	!	!	!	!	!LO:LB:g=original
4D/	.	4D/	16dd\LL	16dd\LL	.	.	.	.	.	.	.	.	4dd\	8f#/L
.	.	.	16ff#\	16aa\	.	.	.	.	.	.	.	.	.	.
.	.	.	16ee\	16gg\	.	.	.	.	.	.	.	.	.	8a/J
.	.	.	16dd\JJ	16ff#\JJ	.	.	.	.	.	.	.	.	.	.
8r	.	8r	16cc#\LL	16ee\LL	.	.	.	.	.	.	.	.	8r	8dd\L
.	.	.	16b\	16dd\	.	.	.	.	.	.	.	.	.	.
8C#/	6	8C#/	16a\	16cc#\	.	.	.	.	.	.	.	.	8a/	8ee\J
.	.	.	16g\JJ	16b\JJ	.	.	.	.	.	.	.	.	.	.
=12	=12	=12	=12	=12	=12	=12	=12	=12	=12	=12	=12	=12	=12	=12
!LO:TX:a:t=P:problem=mixed beam	!	!LO:TX:a:t=P:problem=mixed beam	!	!	!LO:TX:b:t=Tutti:mod=	!	!LO:TX:a:t=Tutti:mod=	!	!	!	!	!	!	!
8B\L	-3	16BB/LL	16f#/LL	8a\	2r	.	2r	.	2r	.	2r	.	4dd\	4ff#\
.	.	16B\	16a/	.	.	.	.	.	.	.	.	.	.	.
8G\	2	16A\	16g/	4dd\	.	.	.	.	.	.	.	.	.	.
.	.	16G\JJ	16f#/JJ	.	.	.	.	.	.	.	.	.	.	.
8A\	5 4	8A\L	4e/	.	.	.	.	.	.	.	.	.	8r	8r
8AA/J	x 3	8AA/J	.	8cc#\	.	.	.	.	.	.	.	.	8a/	8ee\
!	!	!	!	!	!LO:MO:mod=!LO&colon;TX&colon;a&colon;t=Tutti	!	!LO:MO:mod=!LO&colon;TX&colon;a&colon;t=Tutti	!	!	!	!LO:MO:mod=!LO&colon;TX&colon;a&colon;t=Tutti	!	!	!
!	!	!	!	!	!null	!	!null	!	!	!	!null	!	!	!
!	!	!	!	!	!	!	!	!	!LO:TX:a:t=Tutti	!	!	!	!	!
4D\	.	4D/	4d/	4dd\	4r	.	4r	.	4r	.	4r	.	4dd\	4ff#\
!	!	!	!	!LO:TX:b:t=Veni Sancte Sp[irit]us Veni:mod=	!	!	!	!	!	!	!	!	!LO:TX:b:t=Veni:mod=	!LO:TX:b:t=Veni S. Spiritus:mod=
!	!	!	!	!	!	!	!	!	!	!	!	!	!LO:MO:mod=!LO&colon;TX&colon;a&colon;t=Tutti	!LO:MO:mod=!LO&colon;TX&colon;a&colon;t=Tutti
!	!	!	!	!	!	!	!	!	!	!	!	!	!	!
!LO:TX:b:t=Tutti	!	!LO:TX:b:t=Tutti	!LO:TX:b:t=tutti\nVeni S. Sp[irit]us:mod=Tutti	!LO:TX:b:t=tutti:mod=Tutti	!	!	!	!	!	!	!LO:TX:a:t=Tutti:mod=	!	!LO:TX:b:t=tutti	!LO:TX:a:t=tutti
8d\L	.	8d\L	8ff#\L	8aa\L	8d\	Ve-	8d\	Ve-	8f#\	Ve-	8a\	Ve-	8f#/L	8dd\L
8c#\J	.	8c#\J	8ee\J	8aa\J	8c#\	-ni	8e\	-ni	8e\	-ni	8a\	-ni	8a/J	8ee\J
!	!	!	!	!	!	!	!	!	!	!	!	!	!LO:LB:g=original	!
=13	=13	=13	=13	=13	=13	=13	=13	=13	=13	=13	=13	=13	=13	=13
*	*	*	*	*	*	*ij	*	*ij	*	*ij	*	*ij	*	*
8d\L	.	8d\L	8dd\L	8ff#\L	8d\	Ve-	8f#\	Ve-	8d\	Ve-	8a\	Ve-	8dd\L	8ff#\L
8A\J	.	8A\J	8ee\J	8aa\J	8A\	-ni	8e\	-ni	8c#\	-ni	8a\	-ni	8a\J	8ee\J
*	*	*	*	*	*	*Xij	*	*Xij	*	*Xij	*	*Xij	*	*
4r	.	8d\L	8dd\L	8ff#\L	4r	.	4r	.	4r	.	4r	.	8ff#\L	8dd\L
.	.	8c#\J	8a\J	8ee\J	.	.	.	.	.	.	.	.	8ee\J	8a\J
4r	.	8d\L	8dd\L	8ff#\L	4r	.	4r	.	4r	.	4r	.	4r	8f#/L
.	.	8G\J	8dd\J	8bb\J	.	.	.	.	.	.	.	.	.	8d/J
8d\L	.	8d\L	8ff#\L	16aa\LL	8d\	Ve-	8f#\	Ve-	8a\	Ve-	8dd\	Ve-	8dd\L	8f#/L
.	.	.	.	16bb\	.	.	.	.	.	.	.	.	.	.
8c#\J	.	8c#\J	8ee\J	16aa\	8c#\	-ni	8e\	-ni	8a\	-ni	8ee\	-ni	8ee\J	8a/J
.	.	.	.	16gg\JJ	.	.	.	.	.	.	.	.	.	.
=14	=14	=14	=14	=14	=14	=14	=14	=14	=14	=14	=14	=14	=14	=14
8B\L	.	8B\L	8dd\L	8ff#\L	8B\	San-	8A/	San-	8f#\	San-	8dd\	San-	8ff#\L	16dd\LL
.	.	.	.	.	.	.	.	.	.	.	.	.	.	16ee\
16F#\L	.	16F#\L	8dd\J	16gg\L	8G\	-cte	8d\	-cte	8g\	-cte	8b\	-cte	16ee\L	16ff#\
16G\JJ	.	16G\JJ	.	16aa\JJ	.	.	.	.	.	.	.	.	16dd\JJ	16gg\JJ
!LO:TX:a:t=P:problem=mixed beam	!	!LO:TX:a:t=P:problem=mixed beam	!	!	!	!	!	!	!	!	!	!	!	!
8A\L	.	8A\L	16aa\LL	4ee\	8.A\	Spi-	8.d\	Spi-	8.e\	Sp[i-	8.a\	Spi-	8.aa\L	4ee\
.	.	.	16bb\	.	.	.	.	.	.	.	.	.	.	.
8AA/J	.	8AA/J	16aa\	.	.	.	.	.	.	.	.	.	.	.
.	.	.	16gg\JJ	.	16AA/	-ri-	16c#\	-ri-	16d\	-ri-	16a\	-ri-	16gg\Jk	.
!LO:TX:a:t=Violi	!	!	!	!	!	!	!	!	!	!	!	!	!	!
8D\L	.	8D\L	16ff#\LL	16dd\LL	4D\	-tus	4d\	-tus	4f#\	-t]us	4a\	-tus	4ff#\	4dd\
.	.	.	16aa\	16ff#\	.	.	.	.	.	.	.	.	.	.
8E\	.	8E\	16aa\	16ff#\	.	.	.	.	.	.	.	.	.	.
.	.	.	16aa\JJ	16ff#\JJ	.	.	.	.	.	.	.	.	.	.
8F#\	.	8F#\	16aa\LL	16ff#\LL	4r	.	4r	.	4r	.	4r	.	4r	4r
.	.	.	16aa\	16ff#\	.	.	.	.	.	.	.	.	.	.
!	!	!	!LO:SIC:o=16gg\	!	!	!	!	!	!	!	!	!	!	!
8G#X\J	.	8G#X\J	16gg#	16ee\	.	.	.	.	.	.	.	.	.	.
.	.	.	16ff#\JJ	16dd\JJ	.	.	.	.	.	.	.	.	.	.
=15	=15	=15	=15	=15	=15	=15	=15	=15	=15	=15	=15	=15	=15	=15
!LO:TX:a:t=P:problem=mixed beam	!	!LO:TX:a:t=P:problem=mixed beam	!	!	!	!	!	!	!	!	!	!	!	!
8A\L	.	8A\L	8ee\L	8cc#\L	4r	.	4r	.	4r	.	4r	.	4r	4r
8AA/J	.	8AA/	8cc#\J	8a\J	.	.	.	.	.	.	.	.	.	.
!	!	!	!	!	!	!	!	!	!	!	!	!	!LO:SIC:o=8f#/L	!LO:SIC:o=8f#/L
8A\L	.	8A\	8aa\L	8ee\L	8A\	Ve-	8c#\	Ve-	8e\	Ve-	8a\	Ve-	8gL	8gL
8G#X\J	.	8G#X\J	8bb\J	8ee\J	8G#X\	-ni	8B\	-ni	8e\	-ni	8b\	-ni	8f#/	8f#/
!	!	!	!	!	!	!	!LO:LB:g=original	!	!	!	!	!	!	!
*	*	*	*	*	*	*	*	*ij	*	*ij	*	*ij	*	*
8A\L	.	8A\L	8aa\L	8ee\L	8A\	Ve-	8A/	Ve-	8e\	Ve-	8cc#\	Ve-	8f#/	8f#/
8E\J	.	8E\	8gg#X\J	16b\L	8E\	-ni	8G#X/	-ni	8e\	-ni	8b\	-ni	8f#/J	8f#/J
*	*	*	*	*	*	*	*	*Xij	*	*Xij	*	*Xij	*	*
.	.	.	.	16cc#\JJ	.	.	.	.	.	.	.	.	.	.
4r	.	8F#\	8aa\L	16dd\LL	4r	.	4r	.	4r	.	4r	.	4r	4r
.	.	.	.	16cc#\	.	.	.	.	.	.	.	.	.	.
.	.	8G#X\J	8aa\J	16dd\	.	.	.	.	.	.	.	.	.	.
.	.	.	.	16ee\JJ	.	.	.	.	.	.	.	.	.	.
!	!	!	!	!	!LO:LB:g=original	!	!	!	!LO:LB:g=original	!	!LO:LB:g=original	!	!	!
=16	=16	=16	=16	=16	=16	=16	=16	=16	=16	=16	=16	=16	=16	=16
8A\L	.	8A\L	8ee\L	8cc#\L	4r	.	8A/	Ve-	8a\	Ve-	16cc#\LL	Ve-	4r	4r
.	.	.	.	.	.	.	.	.	.	.	16dd\	.	.	.
!	!	!	!	!	!	!	!	!	!LO:SIC:o=8g\	!	!	!	!	!
8E\	#	8E\	8ee\	8b\	.	.	8E/	-ni	8g#	-ni	16cc#\	.	.	.
.	.	.	.	.	.	.	.	.	.	.	16b\JJ	.	.	.
!	!	!LO:SIC:s:t=:v:t:nieczytelna notatka	!	!	!	!	!	!	!	!	!	!	!	!
*	*	*	*	*	*	*	*	*ij	*	*ij	*	*	*	*
8F#\	-3	8F#\	8cc#\	8a\	8F#\	Ve-	8F#/	Ve-	8a\	Ve-	8a\	-ni	8ff#\L	8aa\L
!	!	!	!	!LO:MO:mod=8eeJ	!	!	!	!	!	!	!	!	!	!
8C#\J	6	8C#\J	8aa\J	8ee\	8C#/	-ni	8G#X/	-ni	8e\	-ni	8ee\	.	8aa\J	8ee\J
*	*	*	*	*	*	*	*	*Xij	*	*Xij	*	*	*	*
!LO:LB:g=original	!	!LO:LB:g=original	!	!	!	!	!	!	!	!	!	!	!	!
!	!	!	!	!LO:MO:mod=8ff#L	!	!	!	!	!	!	!	!	!	!
8D/L	.	8D/L	8dd\L	8ff#\	8D/	et	8A\	et	8d\	et	8ff#\	et	8dd\L	8ff#\L
8C#/	.	8C#/	8a\	8ee\	8C#/	e-	8A\	e-	8e\	e-	8ee\	e-	8a\J	8ee\J
8BB/	.	8BB/	8ff#\	8dd\	8BB/	-mit-	16A\LL	-mit-	8f#\	-mit-	8dd\	-mit-	4r	4r
.	.	.	.	.	.	.	16B\JJ	.	.	.	.	.	.	.
8AA/J	.	8AA/J	8ee\J	8cc#\J	8AA/	-te	16c#\LL	-te	8a\	-te	8cc#\	-te	.	.
.	.	.	.	.	.	.	16d\JJ	.	.	.	.	.	.	.
!	!	!	!	!	!	!	!	!	!	!	!	!	!	!LO:LB:g=original
=17	=17	=17	=17	=17	=17	=17	=17	=17	=17	=17	=17	=17	=17	=17
!LO:TX:a:t=P:problem=mixed beam	!	!LO:TX:a:t=P:problem=mixed beam	!	!	!	!	!	!	!	!	!	!	!	!
8E\L	.	8E\L	8ee\L	8b\L	8E\	cæ-	8.e\	cæ-	8.a\	cæ-	8.b\	cæ-	4r	4r
8EE/J	.	8EE/J	8b\J	8ee\J	8EE/	-li-	.	.	.	.	.	.	.	.
.	.	.	.	.	.	.	16d\	-li-	16g#X\	-li-	16a\	-li-	.	.
8AA/L	.	8AA/L	8cc#\L	16aa\LL	4AA/	-tus	4c#\	-tus	4a\	-tus	4a\	-tus	8a/L	8ee\L
.	.	.	.	16bb\	.	.	.	.	.	.	.	.	.	.
16BB/L	.	16BB/L	16dd\L	16aa\	.	.	.	.	.	.	.	.	8a/J	8ee\J
16C#/JJ	.	16C#/JJ	16ee\JJ	16gg\JJ	.	.	.	.	.	.	.	.	.	.
8D/L	.	8D/L	8a/L	8ff#\L	4r	.	4r	.	4r	.	4r	.	8dd\L	8ff#\L
8C#/J	.	8C#/	16b/L	8ee\	.	.	.	.	.	.	.	.	8a\J	8ee\J
.	.	.	16cc#/JJ	.	.	.	.	.	.	.	.	.	.	.
!LO:TX:a:t=P:problem=mixed beam	!	!	!	!	!	!	!	!	!	!	!	!	!	!
8D/L	.	8D/	8dd\L	8dd\	8D/	Ve-	8f#\	Ve-	8a\	Ve-	8dd\	Ve-	4r	4r
8A\J	.	8A\J	8cc#\J	8ee\J	8A\	-ni	8e\	-ni	8a\	-ni	8ee\	-ni	.	.
=18	=18	=18	=18	=18	=18	=18	=18	=18	=18	=18	=18	=18	=18	=18
*	*	*	*	*	*	*	*	*ij	*	*ij	*	*	*	*
8d\L	.	8d\L	8dd\L	8ff#\L	16d\LL	Ve-	8d\	Ve-	4.a\	Ve-	16ff#\LL	Ve-	4r	4r
.	.	.	.	.	16e\	.	.	.	.	.	16gg\	.	.	.
8c#\	.	8c#\	8ee\	8aa\	16d\	.	8A/	-ni	.	.	16ff#\	.	.	.
.	.	.	.	.	16c#\JJ	.	.	.	.	.	16ee\JJ	.	.	.
8B\	.	8B\	8ff#\	8dd\	8.B\	.	8F#/	Ve-	.	.	8.dd\	-ni	8dd\L	8ff#\L
8A\J	.	8A\J	16gg\L	16ee\L	.	.	8A/	-ni	8e\	-ni	.	.	8a\J	8ee\J
.	.	.	16aa\JJ	16ff#\JJ	16A\	-ni	.	.	.	.	16cc#\	.	.	.
*	*	*	*	*	*	*	*	*Xij	*	*Xij	*	*	*	*
8G\L	.	8G\L	8bb\L	8gg\L	8G\	lu-	8B\	lu-	8d\	lu-	8b\	lu-	4r	4r
8F#\	.	8F#\	8aa\J	8aa\	8F#\	-cis	8A\	-cis	8f#\	-cis	8dd\	-cis	.	.
8G\	.	8G\	16gg\LL	8bb\	8G\	tu-	8d\	tu-	(16g\LL	tu-	8b\	tu-	8d/L	8r
.	.	.	16aa\	.	.	.	.	.	16a\JJ)	.	.	.	.	.
8D\J	.	8D\J	16gg\	8aa\J	8D\	-æ	8d\	-æ	(16g\LL	-æ	8a\	-æ	8f#/J	16dd\LL
.	.	.	16ff#\JJ	.	.	.	.	.	16f#\JJ)	.	.	.	.	16dd\JJ
!	!	!	!	!	!	!	!LO:LB:g=original	!	!	!	!	!	!LO:LB:g=original	!
=19	=19	=19	=19	=19	=19	=19	=19	=19	=19	=19	=19	=19	=19	=19
!LO:TX:a:t=P:problem=mixed beam	!	!LO:TX:a:t=P:problem=mixed beam	!	!	!	!	!	!	!	!	!	!	!	!
8A\L	.	8A\L	8ee\L	8aa\L	8A\	ra-	8.d\	ra-	8.e\	ra-	8.a\	ra-	8a/L	8ee\L
8AA/J	.	16AA/L	8aa\J	8ee\J	8AA/	-di-	.	.	.	.	.	.	16f#/L	16dd\L
.	.	16BB/JJ	.	.	.	.	16c#\	-di-	16e\	-di-	16a\	-di-	16a/JJ	16ee\JJ
!LO:TX:b:t=Vio[l]a	!	!LO:SIC:o=8C#/L	!	!	!	!	!	!	!	!	!	!	!	!
8D/L	.	8D	8dd\L	8ff#\L	4D/	-um	4d\	-um	4f#\	-um	4a\	-um	8dd\L	8ff#\L
8C#/J	.	8AA/J	8cc#\J	8ee\J	.	.	.	.	.	.	.	.	8a\J	8ee\J
!	!	!	!	!	!LO:LB:g=original	!	!	!	!LO:LB:g=original	!	!LO:LB:g=original	!	!	!
8D/L	.	8D/L	8ff#\L	8dd\L	4r	.	4r	.	4r	.	4r	.	8f#/L	8dd\L
8C#/J	.	8C#/	8a\J	8ee\	.	.	.	.	.	.	.	.	8a/J	8ee\J
!LO:TX:b:t=tutti	!	!	!	!	!	!	!	!	!	!	!	!	!	!
8BB/L	.	8BB/	8b\L	8ff#\	8B\	Ve-	8d\	Ve-	8.f#\	Ve-	8.ff#\	Ve-	4r	4r
8AA#X/J	6	8AA#X/J	8cc#\J	8ff#\J	8A#X\	-ni	8c#\	-ni	.	.	.	.	.	.
.	.	.	.	.	.	.	.	.	16f#\	-ni	16ee\	-ni	.	.
=20	=20	=20	=20	=20	=20	=20	=20	=20	=20	=20	=20	=20	=20	=20
*	*	*	*	*	*	*ij	*	*ij	*	*ij	*	*	*	*
4BB/	-	16BB/LL	8dd\L	8ff#\L	8B\	Ve-	16B\LL	Ve-	8f#\	Ve-	16dd\LL	Ve-	1r	1r
.	.	16C#/	.	.	.	.	16A\	.	.	.	16cc#\	.	.	.
.	.	16D/	16cc#\L	16ee\L	8BB/	-ni	16B\	.	8f#\	-ni	16dd\	.	.	.
.	.	16E/JJ	16b\JJ	16dd\JJ	.	.	16c#\JJ	.	.	.	16b\JJ	.	.	.
!	!	!	!	!	!	!	!	!	!	!	!	!LO:MO:mod=.	!	!
4r	.	8F#\L	8a#X/L	8cc#\L	4r	.	8A#X/	.	4r	.	8cc#\	-ni	.	.
!	!	!	!	!	!	!	!	!	!	!	!	!LO:MO:null:mod=-ni	!	!
.	.	8A#X\J	8f#/J	8cc#\J	.	.	8A#/	-ni	.	.	8f#/	.	.	.
*	*	*	*	*	*	*Xij	*	*Xij	*	*Xij	*	*	*	*
8B\L	.	8B\L	8dd\L	8ff#\L	8B\	lu-	8d\	Ve-	8f#\	lu-	8b\	lu-	.	.
!LO:SIC:o=8A\	!	!	!	!	!	!	!	!	!	!	!	!	!	!
8A#	.	8A#\	8cc#\J	8ee\	8A\	-cis	8c#\	-ni	8e\	-cis	8cc#\	-cis	.	.
8G\	.	8G\	8b\L	8dd\	8G\	tu-	8B\	S[an]-	8d\	tu-	8dd\	tu-	.	.
8E\J	.	8E\J	16cc#\L	8gg\J	8E\	-æ	8d\	-cte	8g\	-æ	8ee\	-æ	.	.
.	.	.	16b\JJ	.	.	.	.	.	.	.	.	.	.	.
=21	=21	=21	=21	=21	=21	=21	=21	=21	=21	=21	=21	=21	=21	=21
!	!	!LO:SIC:s:t=:v: ósemka z kropką	!	!	!	!	!	!	!	!	!	!	!	!
!	!	!LO:TX:a:t=P:problem=mixed beam	!	!	!	!	!	!	!	!	!	!	!	!
!	!	!LO:MO:mod=!null:null	!	!	!	!	!	!	!	!	!	!	!	!
!	!	!LO:N:vis=8.	!	!	!	!	!	!	!	!	!	!	!	!
4F#\	4	8F#\L	8cc#\L	8ff#\L	8.F#\	ra-	8.A#X/	Sp[i-	8.f#\	ra-	8.ddT\	ra-	2r	4r
.	3	8FF#/J	8ff#\J	16cc#\L	.	.	.	.	.	.	.	.	.	.
.	.	.	.	16cc#\JJ	16FF#/	-di-	16A#/	-ri-	16f#\	-di-	16cc#\	-di-	.	.
4BB/	n	8BB/L	8dd\L	8dd\L	4BB/	-um	4B\	-t]us	4f#\	-um	4b\	-um	.	8dd\L
.	.	8C#/J	8a\J	8ee\J	.	.	.	.	.	.	.	.	.	8ee\J
4r	.	8D/L	8dd\L	8ff#\L	4r	.	4r	.	4r	.	4r	.	8dd\L	8ff#\L
.	.	8C#/J	16dd\L	8ee\	.	.	.	.	.	.	.	.	8a\J	8ee\J
.	.	.	16ee\JJ	.	.	.	.	.	.	.	.	.	.	.
8D\L	.	8D/L	8ff#\L	8dd\	8D/	Ve-	8d\	Ve-	8f#\	Ve-	8a\	Ve-	8ff#\L	8dd\L
8AA\J	.	8AA/J	8ee\J	8cc#\J	8A\	-ni	8e\	-ni	8e\	-ni	8a\	-ni	8ee\J	8a\J
!LO:LB:g=original	!	!LO:LB:g=original	!	!	!	!	!	!	!	!	!	!	!	!
=22	=22	=22	=22	=22	=22	=22	=22	=22	=22	=22	=22	=22	=22	=22
*	*	*	*	*	*	*ij	*	*ij	*	*ij	*	*ij	*	*
8D\L	.	8D\L	8dd\L	8a/L	8d\	Ve-	8f#\	Ve-	8d\	Ve-	8dd\	Ve-	8dd\L	8f#/L
8A\J	.	8A\J	16cc#\L	16a/L	8A\	-ni	8e\	-ni	8a\	-ni	8cc#\	-ni	8ee\J	8a/J
*	*	*	*	*	*	*Xij	*	*Xij	*	*Xij	*	*Xij	*	*
.	.	.	16cc#\JJ	16a/JJ	.	.	.	.	.	.	.	.	.	.
4r	.	8d\L	8ff#\L	8dd\L	4r	.	4r	.	4r	.	4r	.	4r	4r
.	.	8c#\J	8ee\J	16ee\L	.	.	.	.	.	.	.	.	.	.
.	.	.	.	16ff#\JJ	.	.	.	.	.	.	.	.	.	.
4r	.	16B\LL	16dd\LL	8gg\L	4r	.	4r	.	4r	.	4r	.	4r	16dd\LL
.	.	16A\	16ee\	.	.	.	.	.	.	.	.	.	.	16a\
.	.	16B\	16ff#\	16ff#\L	.	.	.	.	.	.	.	.	.	16dd\
.	.	16c#\JJ	16gg\JJ	16ee\JJ	.	.	.	.	.	.	.	.	.	16ee\JJ
8d\L	.	8d\L	8aa\L	8ff#\L	8d\	Ve-	8d\	Ve-	8f#\	Ve-	8dd\	Ve-	8dd\L	8ff#\L
8A\J	.	8A\J	8ee\J	8aa\J	8A\	-ni	8e\	-ni	8e\	-ni	8cc#\	-ni	8a\J	8ee\J
!	!	!	!	!	!	!	!LO:LB:g=original	!	!	!	!LO:LB:g=original	!	!	!LO:LB:g=original
=23	=23	=23	=23	=23	=23	=23	=23	=23	=23	=23	=23	=23	=23	=23
8B\L	.	8B\L	8ff#\L	8dd\L	8B\	lu-	8d\	lu-	8f#\	luc-	8b\	luc-	8f#/L	8dd\L
8F#\	.	8F#\	16gg\L	8dd\	8F#\	-cis	8B\	-cis	8f#\	-is	8dd\	-is	8d/J	8a\J
.	.	.	16aa\JJ	.	.	.	.	.	.	.	.	.	.	.
8G\	.	8G\	8bb\L	16dd\L	8G\	tu-	8A/	tu-	8g\	tu-	8b\	tu-	4r	4r
.	.	.	.	16ee\	.	.	.	.	.	.	.	.	.	.
8D\J	.	8D\J	8dd\J	16ff#\	8D\	-æ	8d\	-æ	8f#\	-æ	8a\	-æ	.	.
.	.	.	.	16gg\JJ	.	.	.	.	.	.	.	.	.	.
!LO:TX:a:t=P:problem=mixed beam	!	!LO:TX:a:t=P:problem=mixed beam	!	!	!	!	!	!	!	!	!	!	!	!
!	!	!	!	!	!LO:LB:g=original	!	!	!	!LO:LB:g=original	!	!	!	!	!
8A\L	.	8A\L	8ee\	8aa\L	8.A\	ra-	8.d\	ra-	8.e\	ra-	8.a\	ra-	8r	16ee\LL
.	.	.	.	.	.	.	.	.	.	.	.	.	.	16ee\
8AA/J	.	8AA/J	4aa\	8ee\J	.	.	.	.	.	.	.	.	16a/LL	16ee\
.	.	.	.	.	16AA/	-di-	16c#\	-di-	16e\	-di-	16a\	-di-	16a/JJ	16ee\JJ
8D/	.	16D\LL	.	8ff#\L	8D\	-um	8d\	-um	8f#\	-um	8a\	-um	8dd\L	8ff#\L
.	.	16E\	.	.	.	.	.	.	.	.	.	.	.	.
8r	.	16F#\	16gg\LL	8bb\J	8r	.	8r	.	8r	.	8r	.	8a\J	8dd\J
.	.	16G\JJ	16ff#\JJ	.	.	.	.	.	.	.	.	.	.	.
=24	=24	=24	=24	=24	=24	=24	=24	=24	=24	=24	=24	=24	=24	=24
!LO:TX:b:t=Violini	!	!	!	!	!	!	!	!	!	!	!	!	!	!
!LO:TX:a:t=P:problem=mixed beam	!	!LO:TX:a:t=P:problem=mixed beam	!	!	!LO:TX:b:t=Viole:mod=	!	!LO:TX:b:t=V.:mod=	!	!LO:TX:b:t=Violæ:mod=	!	!	!	!	!
8A\L	.	8A\L	8ee\L	16ee\LL	0r	.	0r	.	0r	.	0r	.	16ee\LL	8a/L
.	.	.	.	16aa\	.	.	.	.	.	.	.	.	16ee\	.
8AA/J	.	8AA/J	16dd\L	16gg\	.	.	.	.	.	.	.	.	16ee\	8dd/J
.	.	.	16ee\JJ	16aa\JJ	.	.	.	.	.	.	.	.	16ff#\JJ	.
4D/	.	4D/	4dd\	4ff#\	.	.	.	.	.	.	.	.	4dd\	8a/L
.	.	.	.	.	.	.	.	.	.	.	.	.	.	8f#/J
!	!	!	!LO:TX:b:t=Violino Sola:mod=	!LO:TX:b:t=Symfonia:mod=	!	!	!	!	!	!	!	!	!	!
2r	.	4r	16ff#\LL	16aa\LL	.	.	.	.	.	.	.	.	2r	2r
.	.	.	16ff#\	16aa\	.	.	.	.	.	.	.	.	.	.
.	.	.	16ff#\	16aa\	.	.	.	.	.	.	.	.	.	.
.	.	.	16ff#\JJ	16aa\JJ	.	.	.	.	.	.	.	.	.	.
.	.	8r	16gg\LL	16bb\LL	.	.	.	.	.	.	.	.	.	.
.	.	.	16gg\	16bb\	.	.	.	.	.	.	.	.	.	.
.	.	8G\	16gg\	16bb\	.	.	.	.	.	.	.	.	.	.
.	.	.	16gg\JJ	16bb\JJ	.	.	.	.	.	.	.	.	.	.
=25	=25	=25	=25	=25	=25	=25	=25	=25	=25	=25	=25	=25	=25	=25
4D/	.	4D/	8ff#\L	16aa\LL	.	.	.	.	.	.	.	.	8dd\L	8ff#\L
.	.	.	.	16bb\	.	.	.	.	.	.	.	.	.	.
.	.	.	16ff#\L	16aa\	.	.	.	.	.	.	.	.	8a\J	8dd\J
.	.	.	16gg\JJ	16gg\JJ	.	.	.	.	.	.	.	.	.	.
!	!	!	!	!	!	!	!	!	!	!	!	!	!LO:LB:g=original	!
8r	.	8r	16aa\LL	16ff#\LL	.	.	.	.	.	.	.	.	8f#/L	4r
.	.	.	16bb\	16gg\	.	.	.	.	.	.	.	.	.	.
8D/	.	8D/	16aa\	16ff#\	.	.	.	.	.	.	.	.	8a/J	.
.	.	.	16gg\JJ	16ee\JJ	.	.	.	.	.	.	.	.	.	.
8G\L	.	8G\L	8ff#\L	8dd\L	.	.	.	.	.	.	.	.	8dd\L	4r
16F#\L	.	16F#\L	16dd\L	16bb\L	.	.	.	.	.	.	.	.	16ee\L	.
16E\JJ	.	16E\JJ	16ee\JJ	16bb\JJ	.	.	.	.	.	.	.	.	16ff#\JJ	.
8D/L	.	8D/L	16ff#\LL	16aa\LL	.	.	.	.	.	.	.	.	8dd/L	8aa\L
.	.	.	16gg\	16bb\	.	.	.	.	.	.	.	.	.	.
8C#/J	.	8C#/J	16ff#\	16aa\	.	.	.	.	.	.	.	.	8a/J	8ee\J
.	.	.	16ee\JJ	16gg\JJ	.	.	.	.	.	.	.	.	.	.
=26	=26	=26	=26	=26	=26	=26	=26	=26	=26	=26	=26	=26	=26	=26
!	!	!	!	!	!LO:TX:b:t=tutti:mod=	!	!LO:TX:a:t=Tutt:mod=	!	!	!	!	!	!	!
8BB/L	.	8BB/L	16dd\LL	16ff#\LL	4r	.	4r	.	4r	.	4r	.	8f#/L	8ff#\L
.	.	.	16ff#\	16aa\	.	.	.	.	.	.	.	.	.	.
8GG/J	.	8GG/J	16ee\	16gg\	.	.	.	.	.	.	.	.	8d/J	16gg\L
.	.	.	16dd\JJ	16ff#\JJ	.	.	.	.	.	.	.	.	.	16aa\JJ
!LO:MO:mod=!LO&colon;TX&colon;a&colon;t=Tutti	!	!LO:MO:null:mod=!LO&colon;TX&colon;a&colon;t=Tutti	!LO:MO:null:mod=!LO&colon;TX&colon;a&colon;t=Tutti	!LO:MO:mod=!LO&colon;TX&colon;a&colon;t=Tutti	!LO:MO:null:mod=!LO&colon;TX&colon;a&colon;rj&colon;t=Tutti	!	!LO:MO:null:mod=!LO&colon;TX&colon;a&colon;rj&colon;t=Tutti	!	!LO:MO:mod=!LO&colon;TX&colon;a&colon;rj&colon;t=Tutti	!	!LO:MO:null:mod=!LO&colon;TX&colon;a&colon;rj&colon;t=Tutti	!	!	!
!LO:TX:b:t=tutti	!	!	!	!LO:TX:b:t=tutti	!	!	!	!	!LO:TX:b:t=tutti	!	!	!	!	!
8AA/L	.	8AA/L	8cc#\L	8ee\L	8AA/	Ve-	8c#\	Ve-	8a\	Ve-	8a\	Ve-	4a/	4ee\
8AA/J	.	16BB/L	16b\L	8aa\J	8AA/	-ni	8A\	-ni	8e\	-ni	8cc#\	-ni	.	.
.	.	16C#/JJ	16cc#\JJ	.	.	.	.	.	.	.	.	.	.	.
8D/L	.	8.D/L	8dd\L	8ff#\L	8.D/	Pa-	8d\	Pa-	8f#\	Pa-	8dd\	P[a-	4f#/	8dd\L
8C#/J	6	.	8ee\	8ee\J	.	.	8e\	-ter	8a\	-ter	8ee\	-te]r	.	8a\J
.	.	16C#/Jk	.	.	16C#/	-ter	.	.	.	.	.	.	.	.
8.BB/L	.	8.BB/L	8ff#\	16dd\LL	8.BB/	pau-	8.d\	Pau-	8.a\	Pau-	8ff#\	pau-	4r	4r
.	.	.	.	16ff#\	.	.	.	.	.	.	.	.	.	.
.	.	.	16ee\L	16ee\	.	.	.	.	.	.	16ee\LL	-pe-	.	.
16AA/Jk	6\	16AA/Jk	16dd\JJ	16dd\JJ	16AA/	-pe-	16d\	-pe-	16g#X\	-pe-	16dd\JJ	.	.	.
=27	=27	=27	=27	=27	=27	=27	=27	=27	=27	=27	=27	=27	=27	=27
4AA/	.	16AA/LL	16cc#\LL	8cc#\	4AA/	-rum	4c#\	-rum	4a\	-rum	8ee\	-ru[m]	2r	2r
.	.	16BB/	16ee\	.	.	.	.	.	.	.	.	.	.	.
.	.	16C#/	16dd\	4aa\	.	.	.	.	.	.	8r	.	.	.
.	.	16D/JJ	16cc#\JJ	.	.	.	.	.	.	.	.	.	.	.
4r	.	8E/L	8b\L	.	4r	.	4r	.	4r	.	4r	.	.	.
.	.	8EE/J	16a\L	8gg#X\	.	.	.	.	.	.	.	.	.	.
.	.	.	16b\JJ	.	.	.	.	.	.	.	.	.	.	.
!	!	!LO:LB:g=original	!	!	!	!	!	!	!	!	!	!	!	!
8AA/L	.	8AA/L	8cc#\L	8aa\L	4r	.	4r	.	4r	.	4r	.	8r	8ee\L
16BB/L	.	16BB/L	16cc#\L	8ee\	.	.	.	.	.	.	.	.	8a/	16dd\L
16C#/JJ	.	16C#/JJ	16cc#\JJ	.	.	.	.	.	.	.	.	.	.	16ee\JJ
!LO:TX:b:t=tutti	!	!	!	!	!	!	!	!	!	!	!	!	!	!
8D/L	.	8D/L	8aa\L	8ff#\	8D/	Ve-	8A/	Ve-	8f#\	Ve-	8dd\	Ve-	4dd\	8ff#\L
8D/J	.	8D/J	8ff#\J	8dd\J	8D/	-ni	8A/	-ni	8f#\	-ni	8dd\	-ni	.	8ff#\J
!LO:LB:g=original	!	!	!	!	!	!	!	!	!	!	!	!	!	!
=28	=28	=28	=28	=28	=28	=28	=28	=28	=28	=28	=28	=28	=28	=28
!LO:TX:a:t=P:problem=mixed beam	!	!LO:TX:a:t=P:problem=mixed beam	!	!	!	!	!	!	!	!	!	!	!	!
8G\L	.	8G\L	8bb\L	8b\	8G\	da-	8B\	Da-	8d\	da-	8dd\	Da-	4r	4r
8GG/	.	8BB/	8bb\	4gg\	8BB/	-tor	8B\	-tor	8g\	-tor	8dd\	-tor	.	.
8.D/	.	8.D/	8.aa\	.	8.D/	mu-	8d\	mu-	8.g\	mu-	8a\	mu-	8ff#\L	8aa\L
.	4	.	.	8ff#X\	.	.	8A\	-ne-	.	.	8dd\	-ne-	8ff#\J	8aa\J
16DD/Jk	3	16DD/Jk	16gg\Jk	.	16DD/	-ne-	.	.	16f#X\	-ne-	.	.	.	.
!	!	!	!	!	!	!	!LO:LB:g=original	!	!	!	!LO:LB:g=original	!	!	!
16GG/LL	.	16GG/LL	8gg\L	8gg\L	4GG/	-rum	4B\	-rum	4g\	-rum	4dd\	-rum	8gg\L	8bb\L
16AA/	.	16AA/	.	.	.	.	.	.	.	.	.	.	.	.
16BB/	.	16BB/	16gg\L	8bb\J	.	.	.	.	.	.	.	.	8gg\J	8bb\J
16C#/JJ	.	16C#/JJ	16gg\J	.	.	.	.	.	.	.	.	.	.	.
!	!	!	!LO:SIC:o=8.gg\	!	!	!	!	!	!	!	!	!	!	!
4D\	4	4D/	8.ff#	4aa\	8D/	Ve-	4r	.	4r	.	4r	.	4ff#\	4aa\
.	3	.	.	.	8D/	-ni	.	.	.	.	.	.	.	.
.	.	.	16ff#\Jk	.	.	.	.	.	.	.	.	.	.	.
!	!	!	!	!	!LO:LB:g=original	!	!	!	!LO:LB:g=original	!	!	!	!	!LO:LB:g=original
=29	=29	=29	=29	=29	=29	=29	=29	=29	=29	=29	=29	=29	=29	=29
!	!	!	!	!	!	!	!	!	!LO:SIC:o=8d\L	!	!	!	!	!
8G\L	.	8.G\L	8gg\L	8gg\L	8.G\	lu-	4r	.	8d#	Ve-	4r	.	4gg\	4gg\
8F#\J	.	.	8ff#\J	8dd#X\J	.	.	.	.	16e\L	.	.	.	.	.
.	.	16F#\Jk	.	.	16F#\	-men	.	.	16f#\JJ	.	.	.	.	.
8E\L	-	8E\L	8gg\L	8ee\L	8E\	Ve-	8e\	Ve-	8.g\	-ni	8b\	Ve-	4r	4r
8E\J	.	8E\J	16ff#\L	16ff#\L	16F#\LL	-ni	8B\	-ni	.	.	8b\	-ni	.	.
.	.	.	16ee\JJ	16gg\JJ	16G\JJ	.	.	.	16f#\	.	.	.	.	.
!	!	!	!LO:SIC:o=8.dd#X\	!	!	!	!LO:SIC:o=8c-X\	!	!	!	!	!	!	!
8A\L	.	8A\L	8.dd#	16aa\LL	8A\	lu-	8cn	Lu-	8e\	lu-	8ee\	lu-	2r	2r
.	.	.	.	16bb\	.	.	.	.	.	.	.	.	.	.
8E\J	-	8E\J	.	16aa\	8c#\	-men	8c-\	-men	8g\	-men	8ee\	-men	.	.
!	!	!	!	!	!	!	!	!	!	!	!	!	!	!
.	.	.	4eeT\	16gg\JJ	.	.	.	.	.	.	.	.	.	.
!	!	!LO:TX:a:t=P:problem=mixed beam	!	!	!	!	!	!	!	!	!	!	!	!
8.B\L	.	8.B\L	.	16ff#\LL	8.B\	cor-	8.B\	cor-	8.f#\	cor-	8.ee\	cor-	.	.
.	.	.	.	16bb\	.	.	.	.	.	.	.	.	.	.
.	4 #	.	.	16aa\	.	.	.	.	.	.	.	.	.	.
16BB\Jk	3	16BB/Jk	16dd#\	16bb\JJ	16BB/	-di-	16A/	-di-	16e\	-di-	16dd#X\	-di-	.	.
=30	=30	=30	=30	=30	=30	=30	=30	=30	=30	=30	=30	=30	=30	=30
4E\	.	8E\L	8ee\L	8gg#X\L	4E\	-um	4G#X/	-um	4e\	-um	8ee\	-um	8r	8r
!	!	!	!	!	!	!	!	!	!	!	!	!	!	!LO:SIC:o=8gg\
.	.	16F#\L	8b\J	16gg#\L	.	.	.	.	.	.	16ee\LL	Ve-	8ee\	8dd
.	.	16G\JJ	.	16ff#\JJ	.	.	.	.	.	.	16dd\JJ	.	.	.
8r	.	16A\LL	8cc#\L	8ee\L	8r	.	4r	.	8r	.	4cc#\	-ni	4a/	4ee\
.	.	16B\	.	.	.	.	.	.	.	.	.	.	.	.
8A\	.	16A\	8cc#\J	16aa\L	8A\	Ve-	.	.	8e\	Ve-	.	.	.	.
.	.	16G\JJ	.	16gg#\JJ	.	.	.	.	.	.	.	.	.	.
!	!	!	!LO:SIC:s:t=:v: ta i dwie kolejne nuty&colon; 8a, 4.dd, 16cc#	!	!	!	!	!	!	!	!	!	!	!
4D/	.	8F#\L	4a/	16ff#\LL	4D/	-ni	4r	.	8f#\L	.	8r	.	8r	8r
.	.	.	.	16aa\	.	.	.	.	.	.	.	.	.	.
*	*	*	*	*	*	*	*	*	*	*	*	*ij	*	*
.	.	8D\J	.	16gg#\	.	.	.	.	16e\L	.	8ff#\	Ve-	8dd\	8ff#\
.	.	.	.	16ff#\JJ	.	.	.	.	16d\JJ	.	.	.	.	.
8r	.	16A\LL	8.dd\L	8.ee\L	8r	.	8c#\	Ve-	16a\LL	.	4ee\	-ni	4a/	4ee\
*	*	*	*	*	*	*	*	*	*	*	*	*Xij	*	*
.	.	16B\	.	.	.	.	.	.	16g\	.	.	.	.	.
*	*	*	*	*	*	*ij	*	*	*	*	*	*	*	*
8AA/	.	16c#\	.	.	8AA/	Ve-	8c#\	-ni	16a\	.	.	.	.	.
!	!	!	!	!LO:SIC:o=16dd\Jk	!	!	!	!	!	!	!	!	!	!
.	.	16A\JJ	16cc#X\Jk	16ee	.	.	.	.	16e\JJ	.	.	.	.	.
=31	=31	=31	=31	=31	=31	=31	=31	=31	=31	=31	=31	=31	=31	=31
4D/	.	8d\L	8dd\L	8dd\L	4D/	-ni	8A\L	Ve-	16f#\LL	.	16dd\LL	Ve-	8r	8r
*	*	*	*	*	*	*Xij	*	*	*	*	*	*	*	*
.	.	.	.	.	.	.	.	.	16e\	.	16cc#\	.	.	.
.	.	8A\	8cc#\	8ee\	.	.	16B\L	.	16d\	.	16b\	.	16ff#\LL	16aa\LL
.	.	.	.	.	.	.	16c#\JJ	.	16e\JJ	.	16cc#\JJ	.	16ee\JJ	16gg\JJ
8B\L	.	8B\	8dd\	8ff#\	8B\	Ve-	8.d\	.	8f#\	.	8dd\	-ni	4dd\	4ff#\
8F#\J	.	8F#\J	16ee\L	16gg\L	8F#\	-ni	.	.	16g\LL	-ni	8ff#\	.	.	.
.	.	.	16ff#\JJ	16aa\JJ	.	.	16c#\	-ni	16a\JJ	.	.	.	.	.
!	!	!	!	!	!	!	!	!	!	!	!	!	!LO:LB:g=original	!
4G\	.	8G\L	16gg\LL	8bb\L	8G\	lu-	8B\	Lu-	8b\	lu-	8gg\	lu-	4r	4r
.	.	.	16aa\	.	.	.	.	.	.	.	.	.	.	.
.	.	16F#\L	16gg\	16aa\L	(16F#\LL	-men	8d\	-men	8dd\	-men	8ff#\	-men	.	.
.	.	16G\JJ	16ff#\JJ	16gg\JJ	16G\JJ)	.	.	.	.	.	.	.	.	.
!	!	!LO:TX:a:t=P:problem=mixed beam	!	!	!	!	!	!	!	!	!	!	!	!
4A\	.	8.A\L	8.ee\L	8.aa\L	8.A\	cor-	8.d\	cor-	8.a\	cor-	8.eeT\	cor-	8r	8r
.	.	.	.	.	.	.	.	.	.	.	.	.	8a/	8ee\
.	.	16AA/Jk	16dd\Jk	16gg\Jk	16AA/	-di-	16c#\	-di-	16g\	-di-	16dd\	-di-	.	.
=32	=32	=32	=32	=32	=32	=32	=32	=32	=32	=32	=32	=32	=32	=32
!LO:TX:b:t=Vio:mod=	!	!	!	!	!	!	!	!	!	!	!	!	!	!
!LO:TX:a:t=P:problem=mixed beam	!	!LO:TX:a:t=P:problem=mixed beam	!	!	!	!	!	!	!	!	!	!	!	!
8D/L	.	8D/L	16dd\LL	16ff#\LL	4D\	-um	4d\	-um	4f#\	-um	4dd\	-um	8dd\L	8ff#\L
.	.	.	16dd\	16ff#\	.	.	.	.	.	.	.	.	.	.
8d\	.	8d\	16dd\	16ff#\	.	.	.	.	.	.	.	.	8a\J	8dd\J
.	.	.	16dd\JJ	16ff#\JJ	.	.	.	.	.	.	.	.	.	.
8c#\	.	8c#\	16ee\LL	8aa\L	4r	.	4r	.	4r	.	4r	.	8aa\L	8ee\L
.	.	.	16ee\	.	.	.	.	.	.	.	.	.	.	.
8A\J	.	8A\J	16ee\	16ee\L	.	.	.	.	.	.	.	.	8ee\J	8a\J
.	.	.	16ee\JJ	16aa\JJ	.	.	.	.	.	.	.	.	.	.
!	!	!LO:LB:g=original	!	!	!	!	!	!	!	!	!	!	!	!
8B\L	.	8B\L	16ff#\LL	8ff#\L	2r	.	2r	.	2r	.	2r	.	8ff#\L	4dd\
.	.	.	16aa\	.	.	.	.	.	.	.	.	.	.	.
!	!	!LO:SIC:o=8G\	!	!	!	!	!	!	!	!	!	!	!	!
8G#X\	.	8G#	16gg\	8bb\J	.	.	.	.	.	.	.	.	16gg\L	.
.	.	.	16ff#\JJ	.	.	.	.	.	.	.	.	.	16ff#\JJ	.
8A\	.	8A\	16ee\LL	16ee\LL	.	.	.	.	.	.	.	.	4eeT\	8r
.	.	.	16gg\	16aa\	.	.	.	.	.	.	.	.	.	.
8AA\J	.	8AA/J	16ff#\	16gg\	.	.	.	.	.	.	.	.	.	8a/
.	.	.	16ee\JJ	16aa\JJ	.	.	.	.	.	.	.	.	.	.
=33	=33	=33	=33	=33	=33	=33	=33	=33	=33	=33	=33	=33	=33	=33
4D/	.	4D/	4dd\	4ff#\	1r	.	1r	.	1r	.	1r	.	8dd\L	8a/L
.	.	.	.	.	.	.	.	.	.	.	.	.	16a\L	16a/L
.	.	.	.	.	.	.	.	.	.	.	.	.	16a\JJ	16a/JJ
4r	.	4r	4r	4r	.	.	.	.	.	.	.	.	16f#/LL	16a/LL
.	.	.	.	.	.	.	.	.	.	.	.	.	16f#/	16a/
.	.	.	.	.	.	.	.	.	.	.	.	.	16f#/	16a/
.	.	.	.	.	.	.	.	.	.	.	.	.	16f#/JJ	16a/JJ
2r	.	2r	2r	2r	.	.	.	.	.	.	.	.	4d/	4f#/
.	.	.	.	.	.	.	.	.	.	.	.	.	4r	4r
!LO:LB:g=original	!	!	!	!	!LO:LB:g=original	!	!	!	!LO:LB:g=original	!	!LO:LB:g=original	!	!	!LO:LB:g=original
=34||	=34||	=34||	=34||	=34||	=34||	=34||	=34||	=34||	=34||	=34||	=34||	=34||	=34||	=34||
*M3/2	*	*M3/2	*M3/2	*M3/2	*M3/2	*	*	*	*	*	*M3/2	*	*M3/2	*M3/2
!!!OMD:
!!!OMD-mod: Adagio
!	!	!LO:MO:mod=!LO&colon;TX&colon;a&colon;t=Soprano solo \nConsolator optime	!	!	!	!	!	!	!	!	!	!	!	!
!	!	!	!LO:TX:b:t=Conſolator:mod=	!LO:TX:a:t=adagientiſsime:mod=	!	!	!	!	!	!	!LO:TX:b:t=adagio	!	!	!
!LO:MO:mod=!LO&colon;TX&colon;a&colon;t=Soprano solo \nConsolator optime	!	!	!LO:MO:mod=!LO&colon;TX&colon;a&colon;t=Soprano solo \nConsolator optime	!LO:MO:mod=!LO&colon;TX&colon;a&colon;t=Soprano solo \nConsolator optime	!	!	!	!	!	!	!	!	!	!
!LO:TX:b:t=Solo Can[to]\nConſolator	!	!	!LO:TX:a:t=canto:mod=	!LO:TX:b:t=canto	!LO:TX:a:t=Conſolator optime \nTacet Solo Cant[us]:mod=Consolator optime \nTacet solo Soprano	!	!LO:TX:a:t=Conſolator \nTacet Sol[o] Can[tus]:mod=Consolator optime \nTacet solo Soprano	!	!LO:TX:a:t=Conſolator optime \nTacet Solo Can[tus]:mod=Consolator optime \nTacet solo Soprano	!	!LO:TX:a:t=Solo	!	!LO:TX:a:t=Conſolator optime\nTacet Solo Canto:mod=Consolator optime \nTacet	!LO:TX:a:t=Conſolator optime\nTacent tube:mod=Consolator optime \nTacet
!	!	!LO:MO:mod=!null:null	!	!	!	!	!	!	!	!	!	!	!	!
!	!	!LO:N:vis=0	!	!	!	!	!	!	!	!	!	!	!	!
1.B\	.	0.r	1.r	1.r	1.ryy	.	1.ryy	.	1.ryy	.	2r	.	1.ryy	1.ryy
*	*	*	*	*	*	*	*	*	*	*	*2\right	*	*	*
.	.	.	.	.	.	.	.	.	.	.	2b\	Con-	.	.
.	.	.	.	.	.	.	.	.	.	.	2dd\	-ſo-	.	.
=35	=35	=35	=35	=35	=35	=35	=35	=35	=35	=35	=35	=35	=35	=35
1B\	4 2	.	1.r	1.r	1.ryy	.	1.ryy	.	1.ryy	.	1cc#\	-la-	1.ryy	1.ryy
*2\right	*	*	*	*	*	*	*	*	*	*	*	*	*	*
2A#X\	.	.	.	.	.	.	.	.	.	.	2ff#\	-tor	.	.
=36	=36	=36	=36	=36	=36	=36	=36	=36	=36	=36	=36	=36	=36	=36
*	*	*2\right	*	*	*	*	*	*	*	*	*	*	*	*
!LO:SIC:o=2.B-X\	!	!	!	!	!	!	!	!	!	!	!	!	!	!
2.B	.	2.B\	2.dd\	2.b\	1.ryy	.	1.ryy	.	1.ryy	.	2.dd\	op-	1.ryy	1.ryy
4A\	.	4A\	4cc#\	4cc#\	.	.	.	.	.	.	4cc#\	-ti-	.	.
!LO:TX:b:t=Vio	!	!	!	!	!	!	!	!	!	!	!	!	!	!
4G\	.	4G\	2b\	2dd\	.	.	.	.	.	.	2b\	-me	.	.
4F#\	.	4F#\	.	.	.	.	.	.	.	.	.	.	.	.
=37	=37	=37	=37	=37	=37	=37	=37	=37	=37	=37	=37	=37	=37	=37
1E\	.	1E\	2b/	2.cc#\	1.ryy	.	1.ryy	.	1.ryy	.	1.r	.	1.ryy	1.ryy
.	.	.	2.b/	.	.	.	.	.	.	.	.	.	.	.
.	.	.	.	4cc#\	.	.	.	.	.	.	.	.	.	.
2F#\	#	2F#\	.	4dd\	.	.	.	.	.	.	.	.	.	.
.	.	.	4a#X/	4ee\	.	.	.	.	.	.	.	.	.	.
=38	=38	=38	=38	=38	=38	=38	=38	=38	=38	=38	=38	=38	=38	=38
2BB/	-	2BB/	2b/	2dd\	1.ryy	.	1.ryy	.	1.ryy	.	2r	.	1.ryy	1.ryy
!LO:TX:b:t=can	!	!	!	!	!	!	!	!	!	!	!	!	!	!
2B\	.	2BB/	2f#/	2b/	.	.	.	.	.	.	2dd\	Duc-	.	.
2F#\	6	2r	2r	2r	.	.	.	.	.	.	2ff#\	-cis	.	.
=39	=39	=39	=39	=39	=39	=39	=39	=39	=39	=39	=39	=39	=39	=39
2G\	7 5	1.r	1.r	1.r	1.ryy	.	1.ryy	.	1.ryy	.	1ee\	hos-	1.ryy	1.ryy
2E\	8 7	.	.	.	.	.	.	.	.	.	.	.	.	.
2A\	#	.	.	.	.	.	.	.	.	.	4aa\	-pes	.	.
.	.	.	.	.	.	.	.	.	.	.	4gg\	.	.	.
=40	=40	=40	=40	=40	=40	=40	=40	=40	=40	=40	=40	=40	=40	=40
1D\	.	2r	2r	2r	1.ryy	.	1.ryy	.	1.ryy	.	2.ff#\	a-	1.ryy	1.ryy
.	.	2r	2dd\	2aa\	.	.	.	.	.	.	.	.	.	.
.	.	.	.	.	.	.	.	.	.	.	4ee\	-ni-	.	.
!LO:TX:b:t=Vio	!	!	!	!	!	!	!	!	!	!	!	!	!	!
2GG/	3 -	4B\	2dd\	2ff#\	.	.	.	.	.	.	2dd\	-mæ	.	.
.	.	4A\	.	.	.	.	.	.	.	.	.	.	.	.
=41	=41	=41	=41	=41	=41	=41	=41	=41	=41	=41	=41	=41	=41	=41
2G\	6 5	2G\	2dd\	2dd\	1.ryy	.	1.ryy	.	1.ryy	.	1.r	.	1.ryy	1.ryy
!	!	!	!LO:SIC:o=2dd\	!	!	!	!	!	!	!	!	!	!	!
2E\	.	2E\	2ee	2ee\	.	.	.	.	.	.	.	.	.	.
2A\	.	2A\	2cc#\	4.ff#\	.	.	.	.	.	.	.	.	.	.
.	.	.	.	16gg\LL	.	.	.	.	.	.	.	.	.	.
.	.	.	.	16aa\JJ	.	.	.	.	.	.	.	.	.	.
=42	=42	=42	=42	=42	=42	=42	=42	=42	=42	=42	=42	=42	=42	=42
!LO:TX:b:t=c.	!	!	!	!	!	!	!	!	!	!	!	!	!	!
1D\	.	2D/	2dd\	2ff#\	1.ryy	.	1.ryy	.	1.ryy	.	2r	.	1.ryy	1.ryy
.	.	2D/	2a/	2dd\	.	.	.	.	.	.	2ff#\	Ve-	.	.
2BB/	-3	2r	2r	2r	.	.	.	.	.	.	2dd\	-ni	.	.
=43	=43	=43	=43	=43	=43	=43	=43	=43	=43	=43	=43	=43	=43	=43
!	!	!LO:MO:mod=!null:null	!	!	!	!	!	!	!	!	!	!	!	!
!	!	!LO:N:vis=0	!	!	!	!	!	!	!	!	!	!	!	!
*	*	*	*	*	*	*	*	*	*	*	*	*ij	*	*
2.E\	.	0.r	1.r	1.r	1.ryy	.	1.ryy	.	1.ryy	.	2.gg\	Ve-	1.ryy	1.ryy
4F#\	.	.	.	.	.	.	.	.	.	.	4ff#\	.	.	.
4G\	.	.	.	.	.	.	.	.	.	.	(4ee\	-ni	.	.
4E\	.	.	.	.	.	.	.	.	.	.	4dd\)	.	.	.
*	*	*	*	*	*	*	*	*	*	*	*	*Xij	*	*
!	!	!	!	!	!	!	!	!	!	!	!LO:LB:g=original	!	!	!
=44	=44	=44	=44	=44	=44	=44	=44	=44	=44	=44	=44	=44	=44	=44
1F#\	5 3	.	1.r	1.r	1.ryy	.	1.ryy	.	1.ryy	.	2.cc#\	Dul-	1.ryy	1.ryy
.	6 4	.	.	.	.	.	.	.	.	.	4dd\	-ce	.	.
2E\	8	.	.	.	.	.	.	.	.	.	4.ee\	re-	.	.
.	7	.	.	.	.	.	.	.	.	.	8dd\	-fri-	.	.
!LO:LB:g=original	!	!	!	!	!	!	!	!	!	!	!	!	!	!
=45	=45	=45	=45	=45	=45	=45	=45	=45	=45	=45	=45	=45	=45	=45
!	!	!	!LO:SIC:s:t=:v: brak tego taktu	!LO:SIC:s:t=:v: brak tego taktu	!	!	!	!	!	!	!	!	!	!
1F#\	.	2r	1.r	1.r	1.ryy	.	1.ryy	.	1.ryy	.	2.cc#\	-ge-	1.ryy	1.ryy
.	.	2r	.	.	.	.	.	.	.	.	.	.	.	.
!	!	!	!	!	!	!	!	!	!	!	!LO:SIC:s:t=:v: ósemka z niezaczernioną główką	!	!	!
.	.	.	.	.	.	.	.	.	.	.	4b\	-ri-	.	.
!LO:TX:b:t=Vio	!	!	!	!	!	!	!	!	!	!	!	!	!	!
2BB/	.	2BB/	.	.	.	.	.	.	.	.	2b\	-um	.	.
=46	=46	=46	=46	=46	=46	=46	=46	=46	=46	=46	=46	=46	=46	=46
!	!	!	!	!	!	!	!	!	!	!	!LO:MO:mod=!null:null	!	!	!
!	!	!	!	!	!	!	!	!	!	!	!LO:N:vis=0	!	!	!
1E\	6	1E\	2r	2r	1.ryy	.	1.ryy	.	1.ryy	.	0.r	.	1.ryy	1.ryy
.	.	.	2dd\	2ff#\	.	.	.	.	.	.	.	.	.	.
2G\	.	2G\	2b\	2dd\	.	.	.	.	.	.	.	.	.	.
=47	=47	=47	=47	=47	=47	=47	=47	=47	=47	=47	=47	=47	=47	=47
!	!	!	!LO:TX:a:t=Pianiſsime	!	!	!	!	!	!	!	!	!	!	!
1F#\	.	1F#\	4ee\	4gg\	1.ryy	.	1.ryy	.	1.ryy	.	.	.	1.ryy	1.ryy
.	.	.	4dd\	4ff#\	.	.	.	.	.	.	.	.	.	.
.	.	.	4dd\	4ff#\	.	.	.	.	.	.	.	.	.	.
.	.	.	4cc#\	4ee\	.	.	.	.	.	.	.	.	.	.
2E#X\	7	2E#X\	4.cc#\	4.eeT\	.	.	.	.	.	.	.	.	.	.
.	.	.	8b/	8dd\	.	.	.	.	.	.	.	.	.	.
=48	=48	=48	=48	=48	=48	=48	=48	=48	=48	=48	=48	=48	=48	=48
1F#\	.	1F#\	2.b/	1cc#\t	1.ryy	.	1.ryy	.	1.ryy	.	1.r	.	1.ryy	1.ryy
.	.	.	4a#X/	.	.	.	.	.	.	.	.	.	.	.
2BB/	.	2BB/	2b/	2b/	.	.	.	.	.	.	.	.	.	.
!	!	!LO:LB:g=original	!	!	!	!	!	!	!	!	!	!	!	!
=49||	=49||	=49||	=49||	=49||	=49||	=49||	=49||	=49||	=49||	=49||	=49||	=49||	=49||	=49||
*M4/4	*	*M4/4	*M4/4	*M4/4	*	*	*	*	*	*	*M4/4	*	*	*
*met(c)	*	*met(c)	*met(c)	*met(c)	*	*	*	*	*	*	*met(c)	*	*	*
*mmet(c)	*	*mmet(c)	*mmet(c)	*mmet(c)	*	*	*	*	*	*	*mmet(c)	*	*	*
!!!OMD:
!!!OMD-mod: Lente
!	!	!	!	!LO:SIC:s:t=:v: metrum alla breve:mod=	!	!	!	!	!	!	!	!	!	!
!LO:MO:mod=!LO&colon;TX&colon;a&colon;t=Inlabore	!	!LO:MO:null:mod=!LO&colon;TX&colon;a&colon;t=Inlabore	!LO:MO:mod=!LO&colon;TX&colon;a&colon;t=Inlabore	!LO:MO:mod=!LO&colon;TX&colon;a&colon;t=Inlabore	!	!	!	!	!	!	!	!	!	!
!	!	!	!LO:TX:b:t=Inlabore	!LO:TX:b:t=Inlabore	!	!	!	!	!	!	!	!	!	!
!LO:TX:b:t=adagio:mod=	!	!LO:SIC:s:t=:v: metrum alla breve	!LO:TX:a:t=Lento:mod=	!LO:TX:a:t=Lento:mod=	!	!	!	!	!	!	!LO:SIC:s:t=:v: metrum alla breve	!	!	!
4B\	-3	2r	2r	2r	1ryy	.	1ryy	.	1ryy	.	8f#/	In	1ryy	1ryy
.	.	.	.	.	.	.	.	.	.	.	8b\	la-	.	.
4A#X\	6	.	.	.	.	.	.	.	.	.	8f#/	-bo-	.	.
.	5	.	.	.	.	.	.	.	.	.	16e/LL	-re	.	.
.	.	.	.	.	.	.	.	.	.	.	16f#/JJ	.	.	.
4B\	-7	4r	4r	4r	.	.	.	.	.	.	8.d/	re-	.	.
.	.	.	.	.	.	.	.	.	.	.	16c#/	-qui-	.	.
!LO:TX:b:t=Vio:mod=	!	!	!	!	!	!	!	!	!	!	!	!	!	!
4BB/	.	8r	8r	8r	.	.	.	.	.	.	4B/	-es	.	.
.	.	8BB/	8b\	8dd\	.	.	.	.	.	.	.	.	.	.
=50	=50	=50	=50	=50	=50	=50	=50	=50	=50	=50	=50	=50	=50	=50
4.F#\	#	4.F#\	8a#X\L	8.cc#\L	1ryy	.	1ryy	.	1ryy	.	1r	.	1ryy	1ryy
.	.	.	8b\	.	.	.	.	.	.	.	.	.	.	.
.	.	.	.	16b\Jk	.	.	.	.	.	.	.	.	.	.
!	!	!	!	!LO:TX:a:t=P:problem=mixed beam	!	!	!	!	!	!	!	!	!	!
.	.	.	8cc#\	8a#X\L	.	.	.	.	.	.	.	.	.	.
8D/	.	8D/	8dd\J	8ff#\J	.	.	.	.	.	.	.	.	.	.
8E\L	.	8E\L	16ee\LL	16gg\LL	.	.	.	.	.	.	.	.	.	.
.	.	.	16dd\	16ff#\	.	.	.	.	.	.	.	.	.	.
8BB\J	.	8BB\J	16cc#\	16ee\	.	.	.	.	.	.	.	.	.	.
.	.	.	16b\JJ	16dd\JJ	.	.	.	.	.	.	.	.	.	.
4F#\	.	4F#\	8.b/L	4cc#\	.	.	.	.	.	.	.	.	.	.
.	.	.	16a#X/Jk	.	.	.	.	.	.	.	.	.	.	.
=51	=51	=51	=51	=51	=51	=51	=51	=51	=51	=51	=51	=51	=51	=51
!LO:TX:b:t=can&colon;:mod=	!	!	!	!	!	!	!	!	!	!	!	!	!	!
*	*	*	*	*	*	*	*	*	*	*	*	*ij	*	*
!	!	!	!	!	!	!	!	!	!	!	!LO:MO:null:mod=!LO&colon;TX&colon;a&colon;t=Lente	!	!	!
!	!	!	!	!	!	!	!	!	!	!	!null	!	!	!
4BB/	.	4BB/	8b\	4b/	1ryy	.	1ryy	.	1ryy	.	8f#/	In	1ryy	1ryy
.	.	.	8r	.	.	.	.	.	.	.	8b\	la-	.	.
4AA#X/	6 5	4r	4r	4r	.	.	.	.	.	.	8f#/	-bo-	.	.
.	.	.	.	.	.	.	.	.	.	.	16e/LL	-re	.	.
.	.	.	.	.	.	.	.	.	.	.	16f#/JJ	.	.	.
4.BB/	.	2r	2r	2r	.	.	.	.	.	.	8.d/	re-	.	.
.	.	.	.	.	.	.	.	.	.	.	16c#/	-qui-	.	.
.	.	.	.	.	.	.	.	.	.	.	8B/	-es	.	.
*	*	*	*	*	*	*	*	*	*	*	*	*Xij	*	*
!	!	!	!	!	!	!	!	!	!	!	!LO:TX:b:t=Lente:mod=	!	!	!
8B\	.	.	.	.	.	.	.	.	.	.	8dd\	Ve-	.	.
!	!	!	!	!	!	!	!	!	!	!	!LO:LB:g=original	!	!	!
=52	=52	=52	=52	=52	=52	=52	=52	=52	=52	=52	=52	=52	=52	=52
!LO:TX:a:t=P:problem=mixed beam	!	!	!	!	!	!	!	!	!	!	!	!	!	!
8F#\L	.	8r	8r	8r	1ryy	.	1ryy	.	1ryy	.	8cc#\	-ni	1ryy	1ryy
8r	.	8B\	8b/L	8dd\L	.	.	.	.	.	.	8r	.	.	.
8r	.	8F#\	8a#X/J	8cc#\J	.	.	.	.	.	.	8r	.	.	.
*	*	*	*	*	*	*	*	*	*	*	*	*ij	*	*
8BB/J	-3	8r	8r	8r	.	.	.	.	.	.	8dd\	Ve-	.	.
8F#\L	.	8r	8r	8r	.	.	.	.	.	.	8cc#\	-ni	.	.
*	*	*	*	*	*	*	*	*	*	*	*	*Xij	*	*
8r	.	8BB/	8b/L	8dd\	.	.	.	.	.	.	8r	.	.	.
8r	.	8F#\	8a#/J	8cc#\	.	.	.	.	.	.	8r	.	.	.
8BB\J	-3	8r	8r	8r	.	.	.	.	.	.	8dd\	Ve-	.	.
!LO:PB:g=original	!	!	!	!	!	!	!	!	!	!	!	!	!	!
=53	=53	=53	=53	=53	=53	=53	=53	=53	=53	=53	=53	=53	=53	=53
8F#\	.	8r	8r	8r	1ryy	.	1ryy	.	1ryy	.	8cc#\	-ni	1ryy	1ryy
8r	.	8B\	8dd\L	8b/L	.	.	.	.	.	.	8r	.	.	.
8r	.	8F#\	8cc#\J	8a#X/J	.	.	.	.	.	.	8r	.	.	.
!	!	!	!	!	!	!	!	!	!	!	!LO:MO:mod=!LO&colon;TX&colon;a&colon;t=Spicato	!	!	!
!	!	!	!	!	!	!	!	!	!	!	!LO:TX:b:t=Spicato	!	!	!
8A#X\	6	8r	8r	8r	.	.	.	.	.	.	8cc#\	In	.	.
!	!	!	!	!	!	!	!	!	!	!	!LO:SIC:s:t=:v: podwójne kreseczki	!	!	!
4B\	.	2r	2r	2r	.	.	.	.	.	.	8dd`\	la-	.	.
.	.	.	.	.	.	.	.	.	.	.	8cc#`\	-bo-	.	.
8r	.	.	.	.	.	.	.	.	.	.	8.dd`\	-re	.	.
8A#X\	.	.	.	.	.	.	.	.	.	.	.	.	.	.
.	.	.	.	.	.	.	.	.	.	.	16ee`\	re-	.	.
=54	=54	=54	=54	=54	=54	=54	=54	=54	=54	=54	=54	=54	=54	=54
8B\L	.	8B\L	4r	4r	1ryy	.	1ryy	.	1ryy	.	8.ddT\	-qui-	1ryy	1ryy
8A#X\	.	8A#X\	.	.	.	.	.	.	.	.	.	.	.	.
.	.	.	.	.	.	.	.	.	.	.	16cc#\	-es	.	.
8B\	.	8B\	8r	8r	.	.	.	.	.	.	8b\	Ve-	.	.
8F#\J	.	8F#\J	8a#X/	8cc#\	.	.	.	.	.	.	8a#X\	-ni	.	.
!LO:TX:a:t=P:problem=mixed beam	!	!	!	!	!	!	!	!	!	!	!	!	!	!
8BB/L	.	8BB/L	8b/L	8dd\L	.	.	.	.	.	.	4r	.	.	.
8F#\J	#	8FF#/J	8a#X/J	8cc#\J	.	.	.	.	.	.	.	.	.	.
4D\	.	4r	4r	4r	.	.	.	.	.	.	8ff#\	Ve-	.	.
.	.	.	.	.	.	.	.	.	.	.	8ff#\	-ni	.	.
=55	=55	=55	=55	=55	=55	=55	=55	=55	=55	=55	=55	=55	=55	=55
!	!	!	!LO:TX:b:t=Verte:mod=	!	!	!	!	!	!	!	!	!	!	!
!	!	!	!LO:TX:b:t=iedna:mod=	!LO:TX:b:t=Voltate Veſtra Seniora Folium:mod=	!	!	!	!	!	!	!	!	!	!
4.E\	8	1r	1r	1r	1ryy	.	1ryy	.	1ryy	.	8ee\	in	1ryy	1ryy
.	.	.	.	.	.	.	.	.	.	.	8ff#\	æſ-	.	.
.	7	.	.	.	.	.	.	.	.	.	16gg\LL	-tu	.	.
.	.	.	.	.	.	.	.	.	.	.	16ff#\JJ	.	.	.
8E\	.	.	.	.	.	.	.	.	.	.	16ee\LL	tem-	.	.
.	.	.	.	.	.	.	.	.	.	.	16dd\JJ	.	.	.
!	!	!	!	!	!	!	!	!	!	!	!LO:LB:g=original	!	!	!
4F#\	.	.	.	.	.	.	.	.	.	.	8.cc#\	-pe-	.	.
.	.	.	.	.	.	.	.	.	.	.	16dd\	-ri-	.	.
4A#X\	.	.	.	.	.	.	.	.	.	.	8ee\	-es	.	.
.	.	.	.	.	.	.	.	.	.	.	16ff#\LL	Ve-	.	.
.	.	.	.	.	.	.	.	.	.	.	16cc#\JJ	.	.	.
=56	=56	=56	=56	=56	=56	=56	=56	=56	=56	=56	=56	=56	=56	=56
!LO:TX:b:t=Vio:mod=	!	!	!	!	!	!	!	!	!	!	!	!	!	!
4B\	-3	8r	8r	8r	1ryy	.	1ryy	.	1ryy	.	8dd\	-ni	1ryy	1ryy
.	.	8BB/L	8b\L	8dd\L	.	.	.	.	.	.	8r	.	.	.
4r	.	8AA#X/	8cc#\	8cc#\	.	.	.	.	.	.	4r	.	.	.
.	.	8BB/J	8b\J	8dd\J	.	.	.	.	.	.	.	.	.	.
!	!	!LO:LB:g=original	!	!	!	!	!	!	!	!	!	!	!	!
4F#\	#	4F#\	4a#X/	4cc#\	.	.	.	.	.	.	4r	.	.	.
4D\	.	4r	4r	4r	.	.	.	.	.	.	8ff#\	Ve-	.	.
.	.	.	.	.	.	.	.	.	.	.	8dd\	-ni	.	.
=57	=57	=57	=57	=57	=57	=57	=57	=57	=57	=57	=57	=57	=57	=57
4E\	6\	4r	1r	1r	1ryy	.	1ryy	.	1ryy	.	8.ee\	in	1ryy	1ryy
.	.	.	.	.	.	.	.	.	.	.	16dd\	fle-	.	.
4BB/	-	8r	.	.	.	.	.	.	.	.	16dd\LL	-tu	.	.
.	.	.	.	.	.	.	.	.	.	.	16cc#\JJ	.	.	.
.	.	8BB/	.	.	.	.	.	.	.	.	16ee\LL	so-	.	.
.	.	.	.	.	.	.	.	.	.	.	16dd\JJ	.	.	.
4F#\	.	4F#\	.	.	.	.	.	.	.	.	8.cc#\	-la-	.	.
.	.	.	.	.	.	.	.	.	.	.	16b\	-ti-	.	.
8r	.	4r	.	.	.	.	.	.	.	.	8a#X\	-um	.	.
8BB/	.	.	.	.	.	.	.	.	.	.	8dd\	Ve-	.	.
=58	=58	=58	=58	=58	=58	=58	=58	=58	=58	=58	=58	=58	=58	=58
8F#\	.	8r	8r	8r	1ryy	.	1ryy	.	1ryy	.	8cc#\	-ni	1ryy	1ryy
8r	.	8B\L	8b/	8dd\L	.	.	.	.	.	.	8r	.	.	.
8r	.	8F#\J	8a#X/	8cc#\J	.	.	.	.	.	.	8r	.	.	.
!LO:SIC:s:t=:v:nieczytelne cyfrowanie	!	!	!	!	!	!	!	!	!	!	!	!	!	!
*	*	*	*	*	*	*	*	*	*	*	*	*ij	*	*
8B\	.	8r	8r	8r	.	.	.	.	.	.	8dd\	Ve-	.	.
!LO:LB:g=original	!	!	!	!	!	!	!	!	!	!	!	!	!	!
8F#\	.	8r	8r	8r	.	.	.	.	.	.	8cc#\	-ni	.	.
!	!	!LO:TX:a:t=P:problem=mixed beam	!	!	!	!	!	!	!	!	!	!	!	!
8r	.	8BB/L	8dd\	8b/L	.	.	.	.	.	.	8r	.	.	.
8r	.	8F#\J	8cc#\	8a#X/J	.	.	.	.	.	.	8r	.	.	.
8BB/	-	8r	8r	8r	.	.	.	.	.	.	16ff#\LL	Ve-	.	.
!	!	!	!	!	!	!	!	!	!	!	!LO:TX:b:t=Voltate:mod=	!	!	!
.	.	.	.	.	.	.	.	.	.	.	16ff#\JJ	-ni	.	.
*	*	*	*	*	*	*	*	*	*	*	*	*Xij	*	*
!	!	!	!	!	!	!	!	!	!	!	!LO:PB:g=original	!	!	!
=59	=59	=59	=59	=59	=59	=59	=59	=59	=59	=59	=59	=59	=59	=59
8E\L	.	4r	2r	2r	1ryy	.	1ryy	.	1ryy	.	(8.eeT\	in	1ryy	1ryy
8F#\	.	.	.	.	.	.	.	.	.	.	.	.	.	.
.	.	.	.	.	.	.	.	.	.	.	32dd\LLL	fle-	.	.
.	.	.	.	.	.	.	.	.	.	.	32cc#\JJJ)	.	.	.
8G\	.	8r	.	.	.	.	.	.	.	.	(16b\LL	-tu	.	.
.	.	.	.	.	.	.	.	.	.	.	16cc#\)	.	.	.
8E\J	.	8E\	.	.	.	.	.	.	.	.	(16dd\	so-	.	.
.	.	.	.	.	.	.	.	.	.	.	16cc#\JJ)	.	.	.
!	!	!LO:TX:a:t=P:problem=mixed beam	!	!	!	!	!	!	!	!	!	!	!	!
4F#\	.	8F#\L	4r	4r	.	.	.	.	.	.	8.cc#\	-la-	.	.
.	.	8FF#/J	.	.	.	.	.	.	.	.	.	.	.	.
.	.	.	.	.	.	.	.	.	.	.	16b\	-ti-	.	.
4BB/	.	8BB/L	8r	8r	.	.	.	.	.	.	4b\	-um	.	.
.	.	8BB/J	8dd\	8ff#\	.	.	.	.	.	.	.	.	.	.
=60	=60	=60	=60	=60	=60	=60	=60	=60	=60	=60	=60	=60	=60	=60
!	!	!	!	!	!	!	!LO:SIC:s:t=:v: pojedyncza kreska	!	!	!	!	!	!	!
4r	.	8E\L	8.cc#\L	8ee\L	1ryy	.	1ryy	.	1ryy	.	2r	.	1ryy	1ryy
.	.	8F#\J	.	8ff#\J	.	.	.	.	.	.	.	.	.	.
.	.	.	16dd\L	.	.	.	.	.	.	.	.	.	.	.
8r	.	8G\L	16ee\	16gg\LL	.	.	.	.	.	.	.	.	.	.
.	.	.	16dd\	16ff#\	.	.	.	.	.	.	.	.	.	.
8BB/	.	16F#\L	16cc#\	16ee\	.	.	.	.	.	.	.	.	.	.
.	.	16E\JJ	16b\JJ	16dd\JJ	.	.	.	.	.	.	.	.	.	.
!	!	!LO:TX:a:t=P:problem=mixed beam	!	!	!	!	!	!	!	!	!	!	!	!
4F#\	.	8F#\L	8.b\L	8.cc#t\L	.	.	.	.	.	.	2r	.	.	.
.	.	8FF#/J	.	.	.	.	.	.	.	.	.	.	.	.
.	.	.	16a#X\Jk	16b\Jk	.	.	.	.	.	.	.	.	.	.
!LO:SIC:s:t=:v: pojedyncza kreska	!	!LO:SIC:s:t=:v: pojedyncza kreska	!	!	!	!	!	!	!	!	!	!	!	!
4BB/	.	4BB/	4b/	4b/	.	.	.	.	.	.	.	.	.	.
=61||	=61||	=61||	=61||	=61||	=61||	=61||	=61||	=61||	=61||	=61||	=61||	=61||	=61||	=61||
*M3/2	*	*M3/2	*M3/2	*M3/2	*M3/2	*	*M3/2	*	*M3/2	*	*M3/2	*	*M3/2	*M3/2
*k[f#c#f#]	*	*	*	*	*	*	*	*	*k[f#c#f#]	*	*k[f#c#f#]	*	*k[f#c#f#]	*k[f#c#f#]
!	!	!LO:MO:mod=!LO&colon;TX&colon;a&colon;t=Tutti \nO Lux Beatissima	!	!	!	!	!	!	!	!	!	!	!	!LO:MO:mod=!LO&colon;TX&colon;a&colon;t=Tutti \nO Lux Beatissima
!	!	!LO:TX:b:t=O Lux Beatiſsima	!	!	!LO:MO:mod=!LO&colon;TX&colon;a&colon;t=Tutti \nO Lux Beatissima	!	!LO:MO:mod=!LO&colon;TX&colon;a&colon;t=Tutti \nO Lux Beatissima	!	!	!	!LO:MO:mod=!LO&colon;TX&colon;a&colon;t=Tutti \nO Lux Beatissima	!	!LO:MO:mod=!LO&colon;TX&colon;a&colon;t=Tutti \nO Lux Beatissima	!LO:TX:b:t=O Lux Beatiſsima
!LO:MO:null:mod=!LO&colon;TX&colon;a&colon;t=Tutti \nO Lux Beatissima	!	!	!LO:MO:null:mod=!LO&colon;TX&colon;a&colon;t=Tutti \nO Lux Beatissima	!LO:MO:null:mod=!LO&colon;TX&colon;a&colon;t=Tutti \nO Lux Beatissima	!	!	!	!	!LO:MO:null:mod=!LO&colon;TX&colon;a&colon;t=Tutti \nO Lux Beatissima	!	!	!	!	!
!	!	!LO:TX:b:t=Tutt[i]:mod=	!	!	!LO:TX:a:t=Tutti	!	!LO:TX:b:t=Tutt	!	!	!	!LO:TX:a:t=Tutti	!	!LO:TX:b:t=Lux bea	!LO:TX:a:t=Tutti:mod=
1A\	.	1A\	1cc#\	1ee\	1A\	O	1e\	O	1a\	O	1cc#\	O	1a/	1ee\
*	*	*	*	*	*	*	*2\right	*	*2\right	*	*	*	*	*2\right
2A\	.	2A\	2ee\	2aa\	2AA/	Lux	2c#\	Lux	2e\	Lux	2ee\	Lux	2a/	2ee\
!	!	!	!	!	!	!	!	!	!	!	!	!	!LO:LB:g=original	!
=62	=62	=62	=62	=62	=62	=62	=62	=62	=62	=62	=62	=62	=62	=62
1D\	.	1D\	1a/	1ff#\	1D\	Be-	1A\	Be-	1f#\	Be-	1dd\	Be-	1dd\	2ff#\
.	.	.	.	.	.	.	.	.	.	.	.	.	.	4gg\
!	!	!	!	!	!	!	!	!	!	!	!	!	!	!LO:SIC:o=:v:krzyżyk nad dźwiękiem
.	.	.	.	.	.	.	.	.	.	.	.	.	.	4aa#X\
2BB/	-3	2BB/	2dd\	2gg\	2BB/	-a-	2d\	-a-	2d\	-a-	2b\	-a-	2gg\	2bb\
=63	=63	=63	=63	=63	=63	=63	=63	=63	=63	=63	=63	=63	=63	=63
*	*	*	*	*	*2\right	*	*	*	*	*	*	*	*2\right	*
1F#\	.	1F#\	2.cc#\	1ff#\	2.F#\	-tiſ-	2.c#\	-tiſ-	2.c#/	-tiſ-	2.a#X\	-tiſ-	2.ff#\	2.bb\
!	!	!	!LO:SIC:o=4b/	!	!LO:SIC:s:t=:v: ósemka z niezaczernioną główką	!	!	!	!	!	!	!	!	!
.	.	.	4cc#	.	4F#\	-si-	4c#\	-si-	4f#\	-si-	4a#\	-si-	4ff#\	4aa#X\
2BB/	.	2BB/	2b/	2ff#\	2BB/	-ma	2B\	-ma	2f#\	-ma	2b\	-ma	2ff#\	2bb\
!	!	!LO:PB:g=original	!	!	!	!	!	!	!	!	!	!	!	!
=64	=64	=64	=64	=64	=64	=64	=64	=64	=64	=64	=64	=64	=64	=64
!	!	!	!	!LO:SIC:s:t=:v: nadliczbowy takt	!	!	!	!	!	!	!	!	!	!LO:SIC:s:t=:v: nadliczbowy takt w vl 1
1.r	.	1.r	1.r	1ff#\	1.r	.	1.r	.	1.r	.	1.r	.	1.ryy	1.ryy
.	.	.	.	2ff#\	.	.	.	.	.	.	.	.	.	.
=65	=65	=65	=65	=65	=65	=65	=65	=65	=65	=65	=65	=65	=65	=65
!	!	!	!	!	!	!	!	!	!	!	!	!	!LO:MO:mod=!null:null	!LO:MO:mod=!null:null
!	!	!	!	!	!	!	!	!	!	!	!	!	!LO:N:vis=0	!LO:N:vis=0
2r	.	1E\	2r	2r	2r	.	2r	.	2r	.	2r	.	0.r	0.r
2E\	.	.	2ee\	2gg#X\	2E\	re-	2e\	re-	2g#X\	re-	2b\	re-	.	.
2C#/	.	2C#/	2ee\	2aa\	2C#/	-ple	2e\	-ple	2a\	-ple	2cc#\	-ple	.	.
=66	=66	=66	=66	=66	=66	=66	=66	=66	=66	=66	=66	=66	=66	=66
1D\	.	2D/	1ff#\	1bb\	1D\	cor-	1f#\	cor-	1f#\	cor-	1dd\	cor-	.	.
.	.	2C#/	.	.	.	.	.	.	.	.	.	.	.	.
!LO:SIC:s:t=:v: znak przypominający akcent interpretuję jako "7" z continuo i nie zapisuję	!	!	!	!	!	!	!	!	!	!	!	!	!	!
2BB/	7	2BB/	2ff#\	2aa\	2BB/	-dis	2f#\	-dis	2a\	-dis	2dd\	-dis	.	.
!	!	!	!	!	!	!	!	!	!	!	!LO:LB:g=original	!	!	!
=67	=67	=67	=67	=67	=67	=67	=67	=67	=67	=67	=67	=67	=67	=67
1.C#/	# 4	1.C#X/	1ff#\	1gg#X\	1C#/	in-	1f#\	in-	1g#X\	in-	1cc#\	in-	1.r	1.r
.	x 3	.	2ee#X\	2gg#\	2C#/	-ti-	2e#X\	-ti-	2g#\	-ti-	2cc#\	-ti-	.	.
!	!	!	!	!	!	!	!	!	!LO:LB:g=original	!	!	!	!	!
=68	=68	=68	=68	=68	=68	=68	=68	=68	=68	=68	=68	=68	=68	=68
1F#\	#	1FF#/	1ff#\	1aa#X\	1F#\	-ma	1f#\	-ma	1f#\	-ma	1cc#\	-ma	2r	2r
.	.	.	.	.	.	.	.	.	.	.	.	.	2r	2r
2D\	.	2D/	2aa\	2ff#\	2D\	tu-	2f#\	tu-	2a\	tu-	2dd\	tu-	2ff#\	2aa\
!LO:LB:g=original	!	!	!	!	!LO:LB:g=original	!	!	!	!	!	!	!	!	!
=69	=69	=69	=69	=69	=69	=69	=69	=69	=69	=69	=69	=69	=69	=69
!	!	!	!	!	!	!	!	!	!	!	!	!	!LO:SIC:o=2f#/	!
2G\	.	2G\	2gg\	2bb\	2G\	-o-	2B\	-o-	2g\	-o-	2dd\	-o-	2c	2dd\
!	!	!	!	!LO:SIC:o=2bb\	!	!	!	!	!	!	!	!	!LO:SIC:s:t=:v: instrument naturalny, trudno znaleźć bliski dźwięk zgadzający się z harmonią (cis zmiejszony)	!
2E\	6\	2E\	2cc#\	2ccc#	2E\	-rum	2c#\	-rum	2g\	-rum	2ee\	-rum	2a/	2ee\
2D\	.	2D\	2ff#\	2aa\	2D/	fi-	2d\	fi-	2f#\	fi-	2ff#\	fi-	2dd\	2ff#\
!	!	!	!	!	!	!	!LO:LB:g=original	!	!	!	!	!	!	!
=70	=70	=70	=70	=70	=70	=70	=70	=70	=70	=70	=70	=70	=70	=70
1AA/	4	1A\	1aa\	1ee\	1A\	-de-	1d\	-de-	1a\	-de-	1ee\	-de-	2a/	1ee\
.	.	.	.	.	.	.	.	.	.	.	.	.	2.aa\	.
2AA/	3	2AA/	2ee\	2aa\	2AA/	-li-	2c#\	-li-	2e\	-li-	2ee\	-li-	.	2ee\
.	.	.	.	.	.	.	.	.	.	.	.	.	4gg\	.
=71	=71	=71	=71	=71	=71	=71	=71	=71	=71	=71	=71	=71	=71	=71
2D/	.	2D/	2dd\	2ff#\	2D/	-um	2d\	-um	2f#\	-um	2dd\	-um	2ff#\	2dd\
2BB/	#	2BB/	2ff#\	2ff#\	2BB/	Si-	2d\	Si-	2f#\	Si-	2b\	Si-	2r	2r
!	!	!	!LO:SIC:o=2dd#X\	!	!	!	!	!	!	!	!	!	!	!
2BB/	.	2BB/	2dd	2ff#\	2BB/	-ne	2d\	-ne	2f#\	-ne	2b\	-ne	2r	2r
!	!	!	!	!	!	!	!	!	!	!	!	!	!	!LO:LB:g=original
=72	=72	=72	=72	=72	=72	=72	=72	=72	=72	=72	=72	=72	=72	=72
!LO:SIC:o=1C-X/	!	!LO:SIC:o=1C-X/	!	!	!LO:SIC:o=1C-X/	!	!LO:SIC:o=1c-X\	!	!	!	!	!	!LO:MO:mod=!null:null	!LO:MO:mod=!null:null
!	!	!	!	!	!	!	!	!	!	!	!	!	!LO:N:vis=0	!LO:N:vis=0
1Cn	.	1Cn	1ee\	1gg\	1Cn	tu-	1cn	tu-	1g\	tu-	1ee\	tu-	0.r	0.r
!	!	!	!	!	!	!	!LO:SIC:o=2c-\	!	!	!	!	!	!	!
2AA/	7	2AA/	2ee\	2gg\	2AA/	-o	2c#	-o	2g\	-o	2ee\	-o	.	.
=73	=73	=73	=73	=73	=73	=73	=73	=73	=73	=73	=73	=73	=73	=73
1BB/	4 #	1BB/	1ee\	1ff#\	1BB/	nu-	1B\	nu-	1f#\	nu-	1ee\	nu-	.	.
.	3	.	.	.	.	.	.	.	.	.	.	.	.	.
2BB/	.	2BB/	2dd#X\	2aa\	2BB/	-mi-	2B\	-mi-	2f#\	-mi-	2dd#X\	-mi-	.	.
=74	=74	=74	=74	=74	=74	=74	=74	=74	=74	=74	=74	=74	=74	=74
2E\	.	2E\	2ee\	2bb\	2E\	-ne	2B\	-ne	2g#X\	-ne	2ee\	-ne	2r	2r
!LO:SIC:o=2Cn/	!	!	!	!LO:SIC:o=2ccc#\	!LO:SIC:o=2Cn/	!	!	!	!	!	!	!	!	!
2C#	.	2C#X/	2aa\	2ccn	2C#	ni-	2c#\	ni-	2a\	ni-	2ee\	ni-	2a/	2ee\
2C/	6	2C#/	2aa\	2ccc#\	2C/	-hil	2e\	-hil	2a\	-hil	2cc#\	-hil	2a/	2ee\
=75	=75	=75	=75	=75	=75	=75	=75	=75	=75	=75	=75	=75	=75	=75
1D\	.	1D\	2ff#\	1ddd\	1D\	eſt	1d\	eſt	1f#\	eſt	1a\	eſt	1dd\	2ff#\
!	!	!	!LO:SIC:o=2gg\	!	!	!	!	!	!	!	!	!	!	!
.	.	.	2gg#	.	.	.	.	.	.	.	.	.	.	2gg#X\
2A\	.	2A\	2aa\	2ccc#\	2A\	in	2e\	in	2a\	in	2cc#\	in	2ee\	2aa\
=76	=76	=76	=76	=76	=76	=76	=76	=76	=76	=76	=76	=76	=76	=76
1E\	.	1E\	1aa\	1bb\	1E\	ho-	1B\	ho-	1a\	ho-	1ee\	ho-	1ee\	1aa\
2E\	.	2EE/	2gg#X\	2bb\	2E\	-mi-	2e\	-mi-	2g#X\	-mi-	2b\	-mi-	2ee\	2gg#X\
!	!	!LO:LB:g=original	!	!	!	!	!	!	!LO:LB:g=original	!	!LO:LB:g=original	!	!	!
=77	=77	=77	=77	=77	=77	=77	=77	=77	=77	=77	=77	=77	=77	=77
!	!	!	!	!	!	!	!	!	!	!	!	!	!LO:SIC:o=2dd\	!
2AA/	.	2AA/	2aa\	2aa\	2AA/	-ne	2c#\	-ne	2a\	-ne	2cc#\	-ne	2dd	2aa\
2A\	.	2A\	2ee\	2aa\	2A\	ni-	2e\	ni-	2e\	ni-	2cc#\	ni-	2ee\	2r
2F#\	.	2F#\	2ff#\	2aa\	2F#\	-hil	2f#\	-hil	2a\	-hil	2dd\	-hil	2ff#\	2r
!	!	!	!	!	!	!	!	!	!	!	!	!	!LO:LB:g=original	!
=78	=78	=78	=78	=78	=78	=78	=78	=78	=78	=78	=78	=78	=78	=78
1G\	.	1G\	2dd\	1gg\	1G\	eſt	1d\	eſt	1g\	eſt	1dd\	eſt	2dd\	2r
!	!	!	!	!	!	!	!	!	!	!	!	!	!LO:SIC:s:t=:v: instrument naturalny, trudno znaleźć bliski dźwięk zgadzający się z harmonią (G-dur)	!
.	.	.	2ee\	.	.	.	.	.	.	.	.	.	2a/	2r
2D\	.	2D\	2ff#\	2ff#\	2D/	in-	2A\	in-	2f#\	in-	2dd\	in-	4f#/	2ff#\
.	.	.	.	.	.	.	.	.	.	.	.	.	4d/	.
!	!	!	!	!	!LO:LB:g=original	!	!	!	!	!	!	!	!	!
=79	=79	=79	=79	=79	=79	=79	=79	=79	=79	=79	=79	=79	=79	=79
!	!	!	!LO:SIC:o=1cc#\	!	!	!	!	!	!	!	!	!	!	!
1A\	.	1.AA/	1dd	1ee\	1A\	-no-	1E/	-no-	1e\	-no-	1dd\	-no-	1a/	1ee\
2AA/	.	.	2ee\	2aa\	2AA/	-xi-	2G/	-xi-	2e\	-xi-	2cc#\	-xi-	2a/	2ee\
=80	=80	=80	=80	=80	=80	=80	=80	=80	=80	=80	=80	=80	=80	=80
1.D\	.	1.DD/;	1.a/	1.ff#\	1.D\	-um	1.A\	-um	1.f#\;	-um	1.dd\;	-um	1.f#/	1.dd\
!LO:LB:g=original	!	!	!	!	!	!	!LO:LB:g=original	!	!	!	!	!	!	!
=81||	=81||	=81||	=81||	=81||	=81||	=81||	=81||	=81||	=81||	=81||	=81||	=81||	=81||	=81||
*M4/4	*	*M4/4	*M4/4	*M4/4	*M4/4	*	*M4/4	*	*M4/4	*	*M4/4	*	*M4/4	*M4/4
*met(c)	*	*met(c)	*met(c)	*met(c)	*met(c)	*	*met(c)	*	*met(c)	*	*met(c)	*	*met(c)	*met(c|)
*mmet(c)	*	*mmet(c)	*mmet(c)	*mmet(c)	*mmet(c)	*	*mmet(c)	*	*mmet(c)	*	*mmet(c)	*	*mmet(c)	*mmet(c)
!	!	!	!	!	!	!	!	!	!	!	!	!	!LO:SIC:s:t=:v: najpierw metrum common time, potem metrum alla breve (zapisane 6 taktów później)	!
!LO:MO:mod=!LO&colon;TX&colon;a&colon;t=Basso solo \nLava quod est	!	!LO:MO:mod=!LO&colon;TX&colon;a&colon;t=Basso solo \nLava quod est	!	!	!	!	!	!	!	!	!	!	!	!LO:TX:b:t=Volta Subito:mod=
!	!	!	!LO:MO:mod=!LO&colon;TX&colon;a&colon;t=Basso solo \nLava quod est	!LO:MO:mod=!LO&colon;TX&colon;a&colon;t=Basso solo \nLava quod est	!	!	!LO:MO:mod=!LO&colon;TX&colon;a&colon;t=Basso solo \nLava quod est	!	!LO:MO:mod=!LO&colon;TX&colon;a&colon;t=Basso solo \nLava quod est	!	!LO:MO:mod=!LO&colon;TX&colon;a&colon;t=Basso solo \nLava quod est	!	!LO:MO:mod=!LO&colon;TX&colon;a&colon;t=Basso solo \nLava quod est	!LO:MO:mod=!LO&colon;TX&colon;a&colon;t=Basso solo \nLava quod est
!LO:TX:b:t=Lava quod eſt	!	!LO:TX:b:t=Lava quod eſt	!	!	!	!	!	!	!	!	!	!	!LO:TX:b:t=Lava q[uo]d eſt	!LO:TX:b:t=Lava quod eſt
!LO:TX:a:t=  Baſso:mod=	!	!LO:TX:a:t=Solo Baſso:mod=	!LO:TX:a:t=Baſso	!LO:TX:a:t=Baſso.	!LO:TX:a:t=Solo	!	!LO:TX:a:t=Baſso	!	!LO:TX:a:t=Baſso	!	!LO:TX:a:t=B.	!	!LO:TX:a:t=Baſso:mod=	!LO:TX:b:t=Baſso:mod=
8D\L	.	8D\L	4r	8aa\L	8D\	La-	00r	.	00r	.	00r	.	00r	00r
8E\	.	8E\	.	8gg\	8E\	-va	.	.	.	.	.	.	.	.
8F#\	.	8F#\	8r	8ff#\	8F#\	quod	.	.	.	.	.	.	.	.
8D\J	.	8D\J	16f#/LL	16ee\L	8D\	eſt	.	.	.	.	.	.	.	.
.	.	.	16g/JJ	16dd\JJ	.	.	.	.	.	.	.	.	.	.
4A\	.	4A\	8a/L	8cc#\L	8.A\	Sor-	.	.	.	.	.	.	.	.
.	.	.	16a/L	8dd\	.	.	.	.	.	.	.	.	.	.
.	.	.	16b/JJ	.	16AA/	-di-	.	.	.	.	.	.	.	.
4A\	.	4A\	16cc#\LL	8ee\	4AA/	-dum	.	.	.	.	.	.	.	.
.	.	.	16b\	.	.	.	.	.	.	.	.	.	.	.
.	.	.	16cc#\	16dd\L	.	.	.	.	.	.	.	.	.	.
.	.	.	16dd\JJ	16ee\JJ	.	.	.	.	.	.	.	.	.	.
=82	=82	=82	=82	=82	=82	=82	=82	=82	=82	=82	=82	=82	=82	=82
*	*	*	*	*	*	*ij	*	*	*	*	*	*	*	*
8E\L	3 -	8E\L	8ee\L	8bb\L	8E\	La-	.	.	.	.	.	.	.	.
8F#\	.	8F#\	16dd#X\L	8aa\	8F#\	-va	.	.	.	.	.	.	.	.
.	.	.	16cc#\JJ	.	.	.	.	.	.	.	.	.	.	.
!	!	!LO:SIC:o=:v:bemol na początku taktu	!	!	!	!	!	!	!	!	!	!	!	!
!LO:SIC:o=8G-X\	!	!LO:SIC:o=8G-X\	!	!	!	!	!	!	!	!	!	!	!	!
8G	.	8G	8b\	8gg\	8G\	quod	.	.	.	.	.	.	.	.
8E\J	.	8E\J	4ee\	16aa\L	8E\	eſt	.	.	.	.	.	.	.	.
.	.	.	.	16gg\JJ	.	.	.	.	.	.	.	.	.	.
!	!	!LO:TX:a:t=P:problem=mixed beam	!	!	!	!	!	!	!	!	!	!	!	!
4BB/	4 #	8B\L	.	8.ff#\L	8.B\	Sor-	.	.	.	.	.	.	.	.
.	3	8BB/J	8dd#X\	.	.	.	.	.	.	.	.	.	.	.
.	.	.	.	16ee\Jk	16BB/	-di-	.	.	.	.	.	.	.	.
4EE/	.	4E\	16ee\LL	4ee\	4E\	-dum	.	.	.	.	.	.	.	.
*	*	*	*	*	*	*Xij	*	*	*	*	*	*	*	*
.	.	.	16ff#\	.	.	.	.	.	.	.	.	.	.	.
.	.	.	16ee\	.	.	.	.	.	.	.	.	.	.	.
.	.	.	16dd#\JJ	.	.	.	.	.	.	.	.	.	.	.
=83	=83	=83	=83	=83	=83	=83	=83	=83	=83	=83	=83	=83	=83	=83
8A\L	.	8A\L	4cc#\	8ee\L	8.A\	ri-	.	.	.	.	.	.	.	.
8G\	.	8G\	.	16ff#\L	.	.	.	.	.	.	.	.	.	.
.	.	.	.	16gg\JJ	16G\	-ga	.	.	.	.	.	.	.	.
8F#\	.	8F#\	8a\L	16aa\LL	8F#\	quod	.	.	.	.	.	.	.	.
.	.	.	.	16gg\	.	.	.	.	.	.	.	.	.	.
8D\J	.	16E\L	16dd\L	16ff#\	8D\	eſt	.	.	.	.	.	.	.	.
.	.	16D\JJ	16cc#\JJ	16ee\JJ	.	.	.	.	.	.	.	.	.	.
!	!	!	!	!	!LO:LB:g=original	!	!	!	!	!	!	!	!	!
4.G\	.	4.G\	8b\L	4dd\	(16G\LL	a-	.	.	.	.	.	.	.	.
.	.	.	.	.	16F#\	.	.	.	.	.	.	.	.	.
.	.	.	16a\L	.	16G\	.	.	.	.	.	.	.	.	.
.	.	.	16b\JJ	.	16A\JJ)	.	.	.	.	.	.	.	.	.
.	.	.	8.cc#\L	8ee\L	8G\L	.	.	.	.	.	.	.	.	.
!	!	!LO:TX:a:t=7	!	!	!	!	!	!	!	!	!	!	!	!
8E\	7	8E\	.	8dd\J	16F#\L	.	.	.	.	.	.	.	.	.
.	.	.	16b\Jk	.	16E\JJ	.	.	.	.	.	.	.	.	.
=84	=84	=84	=84	=84	=84	=84	=84	=84	=84	=84	=84	=84	=84	=84
4F#\	#	4.F#\	4a#X/	8cc#\L	8F#\	.	.	.	.	.	.	.	.	.
.	.	.	.	16dd\L	16F#\LL	-ri-	.	.	.	.	.	.	.	.
.	.	.	.	16ee\JJ	16F#\JJ	-dum	.	.	.	.	.	.	.	.
8D\L	.	.	16dd\LL	8.ff#\L	8D\L	Sa-	.	.	.	.	.	.	.	.
.	.	.	16ee\	.	.	.	.	.	.	.	.	.	.	.
*	*	*Xtuplet	*	*	*	*	*	*	*	*	*	*	*	*
!	!	!LO:SIC:s:t=:v: prawdopodobnie 8+16+16 (patrz b)	!	!	!	!	!	!	!	!	!	!	!	!
16E\L	.	24D\LL	16dd\	.	16E\L	.	.	.	.	.	.	.	.	.
.	.	24E\	.	.	.	.	.	.	.	.	.	.	.	.
16F#\JJ	.	.	16cc#\JJ	16ee\Jk	16F#\JJ	.	.	.	.	.	.	.	.	.
.	.	24F#\JJ	.	.	.	.	.	.	.	.	.	.	.	.
4G\	.	4.G\	4b\	8dd\L	8G\L	.	.	.	.	.	.	.	.	.
.	.	.	.	16ee\L	8.F#\	.	.	.	.	.	.	.	.	.
.	.	.	.	16ff#\JJ	.	.	.	.	.	.	.	.	.	.
8E\L	.	.	16ee\LL	8.gg\L	.	.	.	.	.	.	.	.	.	.
.	.	.	16ff#\	.	16E\L	.	.	.	.	.	.	.	.	.
16F#\L	.	24E\LL	16ee\	.	16F#\	.	.	.	.	.	.	.	.	.
.	.	24F#\	.	.	.	.	.	.	.	.	.	.	.	.
16G\JJ	.	.	16dd\JJ	16ff#\Jk	16G\JJ	.	.	.	.	.	.	.	.	.
.	.	24G\JJ	.	.	.	.	.	.	.	.	.	.	.	.
=85	=85	=85	=85	=85	=85	=85	=85	=85	=85	=85	=85	=85	=85	=85
8A\L	.	8A\L	4cc#\	8ee\L	16A\LL	.	0r	.	0r	.	0r	.	0r	0r
.	.	.	.	.	16B\	.	.	.	.	.	.	.	.	.
16B\L	.	16B\L	.	8ee\J	16c#\	.	.	.	.	.	.	.	.	.
16c#\JJ	.	16c#\JJ	.	.	16A\JJ	.	.	.	.	.	.	.	.	.
8.d\L	.	8.d\L	8ff#\L	8aa\L	8.d\	.	.	.	.	.	.	.	.	.
.	.	.	8ee\J	16gg\L	.	.	.	.	.	.	.	.	.	.
16c#\Jk	.	16c#\Jk	.	16aa\JJ	16c#\	-na	.	.	.	.	.	.	.	.
!	!	!LO:LB:g=original	!	!	!	!	!	!	!	!	!	!	!	!
8B\L	.	8B\L	16dd\LL	4ff#\	8B\	Sa-	.	.	.	.	.	.	.	.
.	.	.	16cc#\	.	.	.	.	.	.	.	.	.	.	.
8F#\	.	8F#\	16b\	.	8F#\	-na	.	.	.	.	.	.	.	.
.	.	.	16a\JJ	.	.	.	.	.	.	.	.	.	.	.
8G\	.	8G\	8b\L	16bb\LL	8G\	quod	.	.	.	.	.	.	.	.
.	.	.	.	16aa\	.	.	.	.	.	.	.	.	.	.
8D\J	.	8D\J	16a\L	16gg\	8D\	eſt	.	.	.	.	.	.	.	.
.	.	.	16b\JJ	16ff#\JJ	.	.	.	.	.	.	.	.	.	.
=86	=86	=86	=86	=86	=86	=86	=86	=86	=86	=86	=86	=86	=86	=86
!	!	!LO:TX:a:t=P:problem=mixed beam	!	!	!	!	!	!	!	!	!	!	!	!
4.A\	.	8A\L	4cc#\	16ee\LL	16A\LL	Sau-	.	.	.	.	.	.	.	.
.	.	.	.	16dd\	16G\	.	.	.	.	.	.	.	.	.
.	.	8AA/	.	16cc#\	16A\	.	.	.	.	.	.	.	.	.
.	.	.	.	16b\JJ	16B\JJ	.	.	.	.	.	.	.	.	.
!	!	!	!	!LO:TX:a:t=P:problem=mixed beam	!	!	!	!	!	!	!	!	!	!
.	.	8A\	8r	16a\LL	8A\L	.	.	.	.	.	.	.	.	.
.	.	.	.	16aa\	.	.	.	.	.	.	.	.	.	.
8F#\	.	16G\L	8a/	16gg\	16G\L	.	.	.	.	.	.	.	.	.
!	!	!	!	!	!LO:TX:a:t=Volta Veſtra Seniora.	!	!	!	!	!	!	!	!	!
.	.	16F#\JJ	.	16ff#\JJ	16F#\JJ	.	.	.	.	.	.	.	.	.
!LO:TX:a:t=P:problem=mixed beam	!	!	!	!	!	!	!	!	!	!	!	!	!	!
!	!	!	!	!	!LO:PB:g=original	!	!	!	!	!	!	!	!	!
8G\L	.	8G\L	8b\	8ee\L	16G\LL	.	.	.	.	.	.	.	.	.
.	.	.	.	.	16A\	.	.	.	.	.	.	.	.	.
16F#\L	.	16F#\L	4dd\	16ff#\L	16F#\	.	.	.	.	.	.	.	.	.
16G\J	.	16G\JJ	.	16gg\JJ	16G\JJ	.	.	.	.	.	.	.	.	.
8A\	.	8A\L	.	4ee\	8.A\	-ti-	.	.	.	.	.	.	.	.
!	!	!LO:TX:a:t=P:problem=mixed beam	!	!	!	!	!	!	!	!	!	!	!	!
8AA/J	4	8AA/J	8cc#\	.	.	.	.	.	.	.	.	.	.	.
.	3	.	.	.	16AA/	-um	.	.	.	.	.	.	.	.
!	!	!	!	!	!	!	!	!	!	!	!	!	!LO:TX:b:t=przewrocic zawCaſzu\n[nieczytelne] proſzę:mod=	!
!	!	!	!	!	!	!	!	!	!	!	!	!	!LO:PB:g=original	!LO:PB:g=original
=87	=87	=87	=87	=87	=87	=87	=87	=87	=87	=87	=87	=87	=87	=87
*	*	*	*	*	*	*	*	*	*	*	*	*	*	*k[f#c#f#]
4D/	.	4D/	4dd\	4dd\	4D/	Flec-	4r	.	4r	.	4r	.	4r	4r
!LO:MO:mod=!LO&colon;TX&colon;a&colon;t=Tutti \nFlecte quod est	!	!LO:MO:mod=!LO&colon;TX&colon;a&colon;t=Tutti \nFlecte quod est	!LO:MO:mod=!LO&colon;TX&colon;a&colon;t=Tutti \nFlecte quod est	!LO:MO:mod=!LO&colon;TX&colon;a&colon;t=Tutti \nFlecte quod est	!LO:MO:mod=!LO&colon;TX&colon;a&colon;t=Tutti	!	!LO:MO:mod=!LO&colon;TX&colon;a&colon;t=Tutti	!	!LO:MO:mod=!LO&colon;TX&colon;a&colon;t=Tutti	!	!	!	!	!LO:MO:mod=!LO&colon;TX&colon;a&colon;t=Tutti \nFlecte quod est
!	!	!LO:TX:b:t=Flecte quod eſt	!	!	!	!	!	!	!	!	!LO:MO:null:mod=!LO&colon;TX&colon;a&colon;t=Tutti	!	!LO:MO:null:mod=!LO&colon;TX&colon;a&colon;t=Tutti \nFlecte quod est	!LO:TX:b:t=Flecte quod eſt
!LO:TX:b:t=Tutti	!	!LO:TX:b:t=tutti:mod=	!LO:TX:a:t=tutti	!LO:TX:a:t=tutti	!LO:TX:b:t=Tutti	!	!LO:TX:b:t=Tutti	!	!LO:TX:b:t=Tutti	!	!	!	!	!LO:TX:a:t=Tutti:mod=
8D/L	.	8D/L	8a\L	8dd\L	8D/	-te	8A/	Flec-	8f#\	Flec-	8dd\	Flec-	8f#/L	8dd\L
8D/J	.	8D/J	8a\J	8dd\J	8D/	.	8A/	-te	8a\	-te	8dd\	-te	8d/J	8dd\J
4C#/	6	4C#/	8.a/L	4ee\	4C#/	quod	4A/	quod	4e\	quod	4cc#\	quod	4a/	4ee\
.	.	.	16g/Jk	.	.	.	.	.	.	.	.	.	.	.
4D/	.	4D/	4f#/	4a/	4D/	eſt	4A/	eſt	4f#\	eſt	4dd\	eſt	4dd\	4ff#\
!LO:LB:g=original	!	!	!	!	!	!	!	!	!	!	!	!	!	!
=88	=88	=88	=88	=88	=88	=88	=88	=88	=88	=88	=88	=88	=88	=88
4E\	7	4E\	4b\	4gg\	4E\	ri-	4B\	ri-	4.g\	ri-	4b\	ri-	4.ee\	4.gg\
4A\	#	4A\	4e/	4cc#X\	4A\	-gi-	4e\	-gi-	.	.	4cc#\	-gi-	.	.
.	.	.	.	.	.	.	.	.	8g\	-gi-	.	.	16ff#\LL	8gg\
.	.	.	.	.	.	.	.	.	.	.	.	.	16ee\JJ	.
4D/	.	4D\	4f#/	4dd\	4D/	-dum	4A/	-dum	4f#\	-du[m]	4dd\	-dum	4dd\	4ff#\
8C#/L	.	8C#/L	8cc#\L	8ee\L	8C#/	fo-	8c#\	fo-	8a\	fo-	8ee\	fo-	4r	4r
8C#/J	.	8C#/J	8ee\J	8aa\J	8C#/	-ve	8e\	-ve	8e\	-ve	8ee\	-ve	.	.
!	!	!	!	!	!	!	!	!	!LO:LB:g=original	!	!	!	!	!
=89	=89	=89	=89	=89	=89	=89	=89	=89	=89	=89	=89	=89	=89	=89
4D/	.	4D/	4dd\	4ff#\	4D\	quod	4A/	quod	4f#\	quod	4dd\	quod	2r	2r
4AA/	.	4AA/	8a/	4ee\	4AA/	eſt	4c#\	eſt	4a\	eſt	4ee\	eſt	.	.
.	.	.	4aa\	.	.	.	.	.	.	.	.	.	.	.
4.BB/	.	4.BB/	.	4.dd\	4.BB/	fri-	4.d\	fri-	4.a\	fri-	4.dd\	fri-	4r	4r
.	.	.	16gg#X\LL	.	.	.	.	.	.	.	.	.	.	.
.	3	.	16ff#\JJ	.	.	.	.	.	.	.	.	.	.	.
.	.	.	4gg#X\	.	.	.	.	.	.	.	.	.	8dd\L	8ff#\L
8BB/	6\	8BB/	.	8dd\	8BB/	-gi-	16c#\LL	-gi-	8g#X\	-gi-	8dd\	-gi-	8ff#\J	8dd\J
.	.	.	.	.	.	.	16B\JJ	.	.	.	.	.	.	.
=90	=90	=90	=90	=90	=90	=90	=90	=90	=90	=90	=90	=90	=90	=90
4AA/	.	4AA/	8aa\L	4cc#\	4AA/	-dum	4c#\	-dum	4a\	-dum	4cc#\	-dum	8aa\L	8ee\L
.	.	.	8ee\J	.	.	.	.	.	.	.	.	.	8ee\J	8a\J
!	!	!	!LO:TX:a:t=P:problem=mixed beam	!	!	!	!	!	!	!	!	!	!	!
4FF#/	.	8FF#/L	8a\L	8dd\L	8FF#/	re-	8A/	re-	8a\	re-	8dd\	re-	8dd\L	8ff#\L
.	.	8FF#/J	8dd\J	8a\J	8FF#/	-ge	8d\	-ge	8a\	-ge	8dd\	-ge	8ff#\J	8aa\J
!	!	!	!	!	!LO:LB:g=original	!	!	!	!	!	!LO:LB:g=original	!	!	!
4GG/	.	4GG/	4gg\	4b\	4GG/	quod	4d\	quod	4g\	quod	4b\	quod	4gg\	4bb\
!LO:SIC:o=4C-X/	!	!LO:SIC:o=4C-X/	!	!	!LO:SIC:o=4C-X/	!	!LO:SIC:o=8c-X\L	!	!	!	!	!	!	!
4Cn	8 6	4Cn	4gg\	4ee\	4Cn	eſt	8cn	eſt	4g\	eſt	4ee\	eſt	4gg\	4bb\
.	7 5	.	.	.	.	.	8B\J	.	.	.	.	.	.	.
!	!	!	!	!	!	!	!LO:LB:g=original	!	!	!	!	!	!	!
=91	=91	=91	=91	=91	=91	=91	=91	=91	=91	=91	=91	=91	=91	=91
2D\	4 #	2D\	8gg\L	4a/	16D/LL	de-	4.A/	de-	16g\LL	de-	4.dd\	de-	4gg\	2aa\
.	.	.	.	.	16C#/	.	.	.	(16b\	.	.	.	.	.
.	.	.	16aa\L	.	16D/	.	.	.	16a\	.	.	.	.	.
.	.	.	16gg\JJ	.	16E/JJ	.	.	.	16g\JJ	.	.	.	.	.
.	2	.	16ff#\LL	4dd\	8.D/	.	.	.	16f#\LL	.	.	.	4ff#\	.
.	.	.	16gg\	.	.	.	.	.	16g\JJ)	.	.	.	.	.
.	.	.	16ee\	.	.	.	8d\	-vi-	(16e\LL	-vi-	8a\	-vi-	.	.
.	.	.	16ff#\JJ	.	16D/	-vi-	.	.	16f#\JJ)	.	.	.	.	.
4GG/	.	4GG/	4gg\	4dd\	4GG/	-um	4d\	-um	4g\	-um	4b\	-um	4gg\	4gg\
*	*	*	*	*	*	*ij	*	*	*	*	*	*ij	*	*
8G\L	.	8G\L	8b\L	8ee\L	8G\	re-	8B\	re-	8g\	re-	8ee\	re-	4r	4r
!LO:SIC:o=8G\J	!	!LO:SIC:o=8G\J	!	!	!	!	!	!	!LO:SIC:o=8g\	!	!	!	!	!
8G#	.	8G#J	8ee\J	8dd\J	8G#X\	-ge	8B\	-ge	8g#	-ge	8dd\	-ge	.	.
=92	=92	=92	=92	=92	=92	=92	=92	=92	=92	=92	=92	=92	=92	=92
4G\	.	4G\	8.ee\L	8cc#\L	4A\	quod	4e\	quod	4g\	quod	4cc#\	quod	4r	4r
.	.	.	.	16aa\L	.	.	.	.	.	.	.	.	.	.
.	.	.	32dd\LL	16gg\JJ	.	.	.	.	.	.	.	.	.	.
.	.	.	32cc#\JJJ	.	.	.	.	.	.	.	.	.	.	.
4B\	-3	4B\	8b\L	8ff#\L	4B\	eſt	4d\	eſt	4f#\	eſt	4dd\	eſt	4dd\	8ff#\L
.	.	.	8dd\J	8dd\J	.	.	.	.	.	.	.	.	.	8gg\J
2A\	.	2A\	4dd\	2ee\	4.A\	de-	4.A/	de-	4.e\	de-	4.dd\	de-	2a/	2ee\
.	.	.	4cc#\	.	.	.	.	.	.	.	.	.	.	.
.	.	.	.	.	8AA/	-vi-	8A/	-vi-	8a\	-vi-	8cc#X\	-vi-	.	.
=93	=93	=93	=93	=93	=93	=93	=93	=93	=93	=93	=93	=93	=93	=93
1D\	.	1D\	1dd\	1ff#\	1D\	-um	1A\	-um	1f#X\	-um	1dd\	-um	1f#/	1dd\
*	*	*	*	*	*	*Xij	*	*	*	*	*	*Xij	*	*
!	!	!LO:LB:g=original	!	!	!	!	!	!	!LO:PB:g=original	!	!	!	!LO:LB:g=original	!LO:LB:g=original
=94||	=94||	=94||	=94||	=94||	=94||	=94||	=94||	=94||	=94||	=94||	=94||	=94||	=94||	=94||
*M4/4	*	*M4/4	*M4/4	*M4/4	*M4/4	*	*M4/4	*	*M4/4	*	*M4/4	*	*M4/4	*M4/4
*met(c)	*	*met(c)	*met(c)	*met(c)	*met(c)	*	*met(c)	*	*met(c)	*	*met(c)	*	*met(c|)	*met(c|)
*mmet(c|)	*	*mmet(c|)	*mmet(c|)	*mmet(c|)	*mmet(c|)	*	*mmet(c|)	*	*mmet(c|)	*	*mmet(c|)	*	*mmet(c|)	*mmet(c|)
!	!	!LO:SIC:s:t=:v: metrum alla breve	!	!	!	!	!	!	!	!	!	!	!	!LO:SIC:s:t=:v: metrum alla breve
!LO:MO:mod=!LO&colon;TX&colon;a&colon;t=Alto solo \nDa tuis Fidelibus	!	!LO:MO:mod=!LO&colon;TX&colon;a&colon;t=Alto solo \nDa tuis Fidelibus	!LO:MO:null:mod=!LO&colon;TX&colon;a&colon;t=Alto solo \nDa tuis Fidelibus	!LO:MO:null:mod=!LO&colon;TX&colon;a&colon;t=Alto solo \nDa tuis Fidelibus	!LO:MO:mod=!LO&colon;TX&colon;a&colon;t=Alto solo \nDa tuis Fidelibus	!	!LO:MO:mod=!LO&colon;TX&colon;a&colon;t=Alto solo \nDa tuis Fidelibus	!	!	!	!LO:MO:mod=!LO&colon;TX&colon;a&colon;t=Alto solo \nDa tuis Fidelibus	!	!LO:MO:null:mod=!LO&colon;TX&colon;a&colon;t=Alto solo \nDa tuis Fidelibus	!LO:MO:mod=!LO&colon;TX&colon;a&colon;t=Alto solo \nDa tuis Fidelibus
!LO:TX:b:t=Da tuis Fidelibus	!	!	!	!	!	!	!	!	!	!	!	!	!	!LO:TX:b:t=Alto
!LO:TX:a:t=Alto:mod=	!	!LO:TX:a:t=Alt:mod=	!LO:SIC:s:t=:v: metrum alla breve	!	!LO:TX:b:t=Alto	!	!LO:TX:b:t=Alto	!	!LO:TX:a:t=Solo	!	!LO:TX:b:t=Alto	!	!	!LO:TX:b:t=Da tuis Fidelibus:mod=
8D\L	.	8D\L	1r	1r	00r	.	00r	.	4r	.	00r	.	00r	00r
8E\	.	8E\	.	.	.	.	.	.	.	.	.	.	.	.
8F#\	.	8F#\	.	.	.	.	.	.	8a\	Da	.	.	.	.
8D\J	.	8D\J	.	.	.	.	.	.	8a\	tu-	.	.	.	.
8G\L	.	8G\L	.	.	.	.	.	.	8b\	-is	.	.	.	.
8F#\J	.	8F#\J	.	.	.	.	.	.	8a\	Fi-	.	.	.	.
4E\	7	4E\	.	.	.	.	.	.	8.g\	-de-	.	.	.	.
.	6	.	.	.	.	.	.	.	16f#\	-li-	.	.	.	.
=95	=95	=95	=95	=95	=95	=95	=95	=95	=95	=95	=95	=95	=95	=95
4D\	.	4D/	1r	1r	.	.	.	.	4f#\	-bus	.	.	.	.
4F#\	.	4r	.	.	.	.	.	.	8a\	In	.	.	.	.
.	.	.	.	.	.	.	.	.	8A/	te	.	.	.	.
!LO:TX:a:t=P:problem=mixed beam	!	!	!	!	!	!	!	!	!	!	!	!	!	!
8G\L	.	2r	.	.	.	.	.	.	(16B/LL	con-	.	.	.	.
.	.	.	.	.	.	.	.	.	16c#/)	.	.	.	.	.
16A\L	.	.	.	.	.	.	.	.	(16d/	-fi-	.	.	.	.
16B\J	.	.	.	.	.	.	.	.	16e/JJ)	.	.	.	.	.
8A\	.	.	.	.	.	.	.	.	(8.c#t/	-den-	.	.	.	.
8AA/J	4	.	.	.	.	.	.	.	.	.	.	.	.	.
.	3	.	.	.	.	.	.	.	32B/LLL	-ti-	.	.	.	.
.	.	.	.	.	.	.	.	.	32c#/JJJ)	.	.	.	.	.
!LO:LB:g=original	!	!	!	!	!	!	!	!	!	!	!	!	!	!
=96	=96	=96	=96	=96	=96	=96	=96	=96	=96	=96	=96	=96	=96	=96
!LO:TX:a:t=Violini	!	!	!	!	!	!	!	!	!	!	!	!	!	!
8D\L	.	8D\L	4r	4r	.	.	.	.	4d\	-bus	.	.	.	.
8E\	.	8E\	.	.	.	.	.	.	.	.	.	.	.	.
8F#\	.	8F#\	8ff#\L	8aa\L	.	.	.	.	4r	.	.	.	.	.
8D\J	.	8D\J	8ff#\J	8aa\J	.	.	.	.	.	.	.	.	.	.
!LO:TX:a:t=P:problem=mixed beam	!	!	!	!	!	!	!	!	!	!	!	!	!	!
8G\L	.	8G\L	8dd\L	8bb\L	.	.	.	.	2r	.	.	.	.	.
8F#\	.	8F#\	8dd\	8aa\J	.	.	.	.	.	.	.	.	.	.
!	!	!	!LO:SIC:o=8.dd\	!	!	!	!	!	!	!	!	!	!	!
8E\	7	16E\L	8.ee	16gg\LL	.	.	.	.	.	.	.	.	.	.
.	.	16A\	.	16bb\	.	.	.	.	.	.	.	.	.	.
8AA/J	7	16G\	.	16aa\	.	.	.	.	.	.	.	.	.	.
.	.	16A\JJ	16cc#\Jk	16gg\JJ	.	.	.	.	.	.	.	.	.	.
=97	=97	=97	=97	=97	=97	=97	=97	=97	=97	=97	=97	=97	=97	=97
4D/	.	4D\	8dd\L	4ff#\	.	.	.	.	2r	.	.	.	.	.
.	.	.	8a\J	.	.	.	.	.	.	.	.	.	.	.
4F#\	.	4FF#/	8.f#/L	8aa\L	.	.	.	.	.	.	.	.	.	.
.	.	.	.	8a\J	.	.	.	.	.	.	.	.	.	.
.	.	.	16e/Jk	.	.	.	.	.	.	.	.	.	.	.
8G\L	.	8GG/L	8d/L	16b\LL	.	.	.	.	4r	.	.	.	.	.
.	.	.	.	16cc#\	.	.	.	.	.	.	.	.	.	.
16A\L	.	16AA/L	16g/L	16dd\	.	.	.	.	.	.	.	.	.	.
16B\JJ	.	16BB/JJ	16f#/JJ	16ee\JJ	.	.	.	.	.	.	.	.	.	.
!LO:TX:b:t=Alt	!	!LO:TX:a:t=43:mod=	!	!	!	!	!	!	!	!	!	!	!	!
!LO:TX:a:t=P:problem=mixed beam	!	!	!	!	!	!	!	!	!	!	!	!	!	!
8A\L	.	4AA/	4e/	8cc#\L	.	.	.	.	8e\	Da	.	.	.	.
8AA/J	.	.	.	16b\L	.	.	.	.	8e\	tu-	.	.	.	.
.	.	.	.	16cc#\JJ	.	.	.	.	.	.	.	.	.	.
=98	=98	=98	=98	=98	=98	=98	=98	=98	=98	=98	=98	=98	=98	=98
8D/L	.	8D/	4d/	4dd\	00r	.	00r	.	8d\	-is	00r	.	00r	00r
8C#/J	.	8r	.	.	.	.	.	.	8a\	fi-	.	.	.	.
4BB/	7	4r	4r	4r	.	.	.	.	8.a\	-de-	.	.	.	.
!	!	!	!	!	!	!	!	!	!LO:SIC:s:t=:v:krzyżyk nad dźwiękiem	!	!	!	!	!
.	6\	.	.	.	.	.	.	.	16g#X\	-li-	.	.	.	.
!	!	!	!	!	!	!	!	!	!LO:LB:g=original	!	!	!	!	!
4AA/	.	2r	2r	2r	.	.	.	.	4a\	-bus	.	.	.	.
8A\L	.	.	.	.	.	.	.	.	8e\	in	.	.	.	.
8G#X\J	6	.	.	.	.	.	.	.	(16f#\LL	te	.	.	.	.
.	.	.	.	.	.	.	.	.	16g#X\JJ)	.	.	.	.	.
=99	=99	=99	=99	=99	=99	=99	=99	=99	=99	=99	=99	=99	=99	=99
8F#\L	6\	4r	4r	4r	.	.	.	.	(16a\LL	con-	.	.	.	.
.	.	.	.	.	.	.	.	.	16b\JJ)	.	.	.	.	.
8E\J	-3	.	.	.	.	.	.	.	16a\LL	-fi-	.	.	.	.
.	.	.	.	.	.	.	.	.	16g\JJ	.	.	.	.	.
!LO:TX:a:t=P:problem=mixed beam	!	!	!	!	!	!	!	!	!	!	!	!	!	!
!LO:TX:b:t=Vio	!	!	!	!	!	!	!	!	!	!	!	!	!	!
8B\L	.	8BB/L	8dd#X\L	8ff#\L	.	.	.	.	8.f#\	-den-	.	.	.	.
8BB/J	.	16BB/L	8dd#\J	8ff#\J	.	.	.	.	.	.	.	.	.	.
.	.	16BB/JJ	.	.	.	.	.	.	16e\	-ti-	.	.	.	.
8E\L	.	16E\LL	8b\L	8gg\L	.	.	.	.	4e\	-bus	.	.	.	.
.	.	16F#\	.	.	.	.	.	.	.	.	.	.	.	.
8A\	.	16G\	8ee\	16aa\L	.	.	.	.	.	.	.	.	.	.
.	.	16A\JJ	.	16gg\JJ	.	.	.	.	.	.	.	.	.	.
!	!	!LO:TX:a:t=P:problem=mixed beam	!	!	!	!	!	!	!	!	!	!	!	!
8B\	.	8B\L	8dd#X\	8.ff#\L	.	.	.	.	4r	.	.	.	.	.
8BB\J	4	8BB/J	8b\J	.	.	.	.	.	.	.	.	.	.	.
.	3	.	.	16ee\Jk	.	.	.	.	.	.	.	.	.	.
=100	=100	=100	=100	=100	=100	=100	=100	=100	=100	=100	=100	=100	=100	=100
!	!	!LO:SIC:o=8E#X\L	!	!	!	!	!	!	!	!	!	!	!	!
8E\L	#	8E	8g#X/L	4ee\	.	.	.	.	4r	.	.	.	.	.
16F#\L	.	16F#\L	16a/L	.	.	.	.	.	.	.	.	.	.	.
16G\JJ	.	16G\JJ	16b/JJ	.	.	.	.	.	.	.	.	.	.	.
!LO:TX:b:t=Alt	!	!	!	!	!	!	!	!	!	!	!	!	!	!
8A\L	.	4r	4cc#\	4r	.	.	.	.	8e\L	Sac-	.	.	.	.
8G\J	.	.	.	.	.	.	.	.	16f#\L	.	.	.	.	.
.	.	.	.	.	.	.	.	.	16g\JJ	.	.	.	.	.
!	!	!LO:LB:g=original	!	!	!	!	!	!	!	!	!	!	!	!
!	!	!LO:TX:a:t=6	!	!	!	!	!	!	!	!	!	!	!	!
8F#\L	.	8F#\L	2r	2r	.	.	.	.	8.a\	.	.	.	.	.
16G\L	.	16G\L	.	.	.	.	.	.	.	.	.	.	.	.
16A\JJ	.	16A\JJ	.	.	.	.	.	.	16g\	-rum	.	.	.	.
8B\L	.	8B\L	.	.	.	.	.	.	16r	.	.	.	.	.
.	.	.	.	.	.	.	.	.	16f#\LL	Sa-	.	.	.	.
8A\J	.	8A\J	.	.	.	.	.	.	16g\	.	.	.	.	.
.	.	.	.	.	.	.	.	.	16a\JJ	.	.	.	.	.
=101	=101	=101	=101	=101	=101	=101	=101	=101	=101	=101	=101	=101	=101	=101
!	!	!	!	!LO:TX:a:t=ied[na]:mod=	!	!	!	!	!	!	!	!	!	!
8.G\L	.	8G\L	1r	1r	.	.	.	.	16b\LL	.	.	.	.	.
.	.	.	.	.	.	.	.	.	16cc#\	.	.	.	.	.
.	.	8F#\	.	.	.	.	.	.	16dd\	.	.	.	.	.
16F#X\Jk	.	.	.	.	.	.	.	.	16cc#\	.	.	.	.	.
8G\L	.	8G\	.	.	.	.	.	.	16b\	.	.	.	.	.
.	.	.	.	.	.	.	.	.	16a\	.	.	.	.	.
8D\J	.	8D\J	.	.	.	.	.	.	16g\	.	.	.	.	.
.	.	.	.	.	.	.	.	.	16f#\JJ	.	.	.	.	.
!LO:LB:g=original	!	!	!	!	!	!	!	!	!	!	!	!	!	!
8A\L	.	4r	.	.	.	.	.	.	8e\	.	.	.	.	.
8F#\J	.	.	.	.	.	.	.	.	8A/	-crum	.	.	.	.
8G\L	.	8r	.	.	.	.	.	.	8B/	Sep-	.	.	.	.
8B\J	.	8B\	.	.	.	.	.	.	8d\	-te-	.	.	.	.
!	!	!	!	!	!	!	!	!	!LO:LB:g=original	!	!	!	!	!
=102	=102	=102	=102	=102	=102	=102	=102	=102	=102	=102	=102	=102	=102	=102
!LO:TX:b:t=Vio:mod=	!	!	!	!	!	!	!	!	!	!	!	!	!	!
!LO:TX:a:t=P:problem=mixed beam	!	!	!	!	!	!	!	!	!	!	!	!	!	!
8A\L	.	16A\LL	8ee\L	4r	00r	.	00r	.	8.c#/	-na-	00r	.	00r	00r
.	.	16G\	.	.	.	.	.	.	.	.	.	.	.	.
8AA/	.	16F#\	16aa\L	.	.	.	.	.	.	.	.	.	.	.
.	.	16E\JJ	16gg\JJ	.	.	.	.	.	16c#/	-ri-	.	.	.	.
8D/	.	8D\L	8ff#\L	8aa\L	.	.	.	.	4d\	-um	.	.	.	.
8D/J	.	8D\J	8a\J	16gg\L	.	.	.	.	.	.	.	.	.	.
.	.	.	.	16ff#\JJ	.	.	.	.	.	.	.	.	.	.
8G\L	.	8G\L	4dd\	8bb\L	.	.	.	.	2r	.	.	.	.	.
16F#\L	.	16F#\L	.	16aa\L	.	.	.	.	.	.	.	.	.	.
16E\JJ	.	16E\JJ	.	16gg\JJ	.	.	.	.	.	.	.	.	.	.
8F#\L	6	8F#\L	8dd\L	8aa\L	.	.	.	.	.	.	.	.	.	.
8D\J	.	16E\L	16ee\L	8ff#\J	.	.	.	.	.	.	.	.	.	.
.	.	16D\JJ	16ff#\JJ	.	.	.	.	.	.	.	.	.	.	.
=103	=103	=103	=103	=103	=103	=103	=103	=103	=103	=103	=103	=103	=103	=103
16E\LL	-	16E\LL	8b\L	8gg\L	.	.	.	.	1r	.	.	.	.	.
16F#\	.	16F#\	.	.	.	.	.	.	.	.	.	.	.	.
16G\	.	16G\	8cc#\J	16aa\L	.	.	.	.	.	.	.	.	.	.
16A\JJ	.	16A\JJ	.	16gg\JJ	.	.	.	.	.	.	.	.	.	.
!	!	!	!	!	!	!	!	!	!	!	!	!	!	!
!	!	!	!LO:TX:a:t=P:problem=mixed beam	!	!	!	!	!	!	!	!	!	!	!
!	!	!	!LO:SIC:o=8a\L	!	!	!	!	!	!	!	!	!	!	!
8B\L	.	16B\LL	8b	16ff#\LL	.	.	.	.	.	.	.	.	.	.
.	.	16A\	.	16ee\	.	.	.	.	.	.	.	.	.	.
8F#\J	.	16B\	16ff#\L	16dd\	.	.	.	.	.	.	.	.	.	.
.	.	16F#\JJ	16ee\JJ	16cc#\JJ	.	.	.	.	.	.	.	.	.	.
4G\	.	4G\	4dd\	16b\LL	.	.	.	.	.	.	.	.	.	.
.	.	.	.	16cc#\	.	.	.	.	.	.	.	.	.	.
.	.	.	.	16dd\	.	.	.	.	.	.	.	.	.	.
.	.	.	.	16ee\	.	.	.	.	.	.	.	.	.	.
8r	.	8r	16r	16ff#\	.	.	.	.	.	.	.	.	.	.
.	.	.	16ff#\LL	16aa\	.	.	.	.	.	.	.	.	.	.
8F#\	.	8F#\	16ee\	16gg\	.	.	.	.	.	.	.	.	.	.
.	.	.	16ff#\JJ	16aa\JJ	.	.	.	.	.	.	.	.	.	.
=104	=104	=104	=104	=104	=104	=104	=104	=104	=104	=104	=104	=104	=104	=104
!LO:TX:a:t=P:problem=mixed beam	!	!LO:TX:a:t=P:problem=mixed beam	!	!	!	!	!	!	!	!	!	!	!	!
8G\L	.	8G\L	16gg\LL	16bb\LL	.	.	.	.	2r	.	.	.	.	.
.	.	.	16ff#\	16aa\	.	.	.	.	.	.	.	.	.	.
8D\	.	8D\	16ee\	16gg\	.	.	.	.	.	.	.	.	.	.
.	.	.	16dd\JJ	16ff#\JJ	.	.	.	.	.	.	.	.	.	.
8A\	.	8A\	8.dd\L	8ee\L	.	.	.	.	.	.	.	.	.	.
8AA/J	.	8AA/J	.	16aa\L	.	.	.	.	.	.	.	.	.	.
.	.	.	16cc#\Jk	16gg\JJ	.	.	.	.	.	.	.	.	.	.
!LO:TX:b:t=Alt:mod=	!	!	!	!	!	!	!	!	!LO:TX:b:t=Solo	!	!	!	!	!
2D/	.	4D/	8dd\L	8ff#\L	.	.	.	.	4r	.	.	.	.	.
.	.	.	8dd\J	8dd\J	.	.	.	.	.	.	.	.	.	.
.	.	4r	4r	4r	.	.	.	.	8A/	Da	.	.	.	.
.	.	.	.	.	.	.	.	.	8A/	vir-	.	.	.	.
=105	=105	=105	=105	=105	=105	=105	=105	=105	=105	=105	=105	=105	=105	=105
!	!	!	!LO:TX:b:t=Alt:mod=	!	!	!	!	!	!	!	!	!	!	!
4BB/	-	2r	1r	1r	.	.	.	.	4d\	-tu-	.	.	.	.
4F#\	6	.	.	.	.	.	.	.	8A/	-tis	.	.	.	.
.	.	.	.	.	.	.	.	.	8a\	Vir-	.	.	.	.
4.B\	.	4r	.	.	.	.	.	.	8f#\	-tu-	.	.	.	.
.	.	.	.	.	.	.	.	.	8e\	-tis	.	.	.	.
.	.	8r	.	.	.	.	.	.	8d\	me-	.	.	.	.
8G#X\	.	8G#X\	.	.	.	.	.	.	16e\LL	-ri-	.	.	.	.
.	.	.	.	.	.	.	.	.	16B\JJ	.	.	.	.	.
=106	=106	=106	=106	=106	=106	=106	=106	=106	=106	=106	=106	=106	=106	=106
!LO:TX:b:t=Vio:mod=	!	!	!	!	!	!	!	!	!	!	!	!	!	!
8A\L	.	8A\L	16ee\LL	4r	2r	.	2r	.	4c#/	-tum	4r	.	2r	2r
.	.	.	16ff#\	.	.	.	.	.	.	.	.	.	.	.
8B\	.	8B\	16ee\	.	.	.	.	.	.	.	.	.	.	.
.	.	.	16dd\JJ	.	.	.	.	.	.	.	.	.	.	.
8c#\	.	8c#\	8cc#\L	8aa\L	.	.	.	.	4r	.	4r	.	.	.
8A\J	.	8A\J	16b\L	8ee\J	.	.	.	.	.	.	.	.	.	.
.	.	.	16cc#\JJ	.	.	.	.	.	.	.	.	.	.	.
!	!	!LO:LB:g=original	!	!	!	!	!	!	!	!	!	!	!	!
!	!	!LO:TX:b:t=tutti:mod=	!	!	!	!	!	!	!	!	!	!	!	!
4D/	.	8D/L	8dd\L	8ff#\L	4r	.	4r	.	4r	.	4r	.	4r	4r
.	.	8D/	8a\J	8dd\J	.	.	.	.	.	.	.	.	.	.
!LO:MO:mod=!LO&colon;TX&colon;a&colon;t=Tutti \nDa virtutis	!	!LO:MO:null:mod=!LO&colon;TX&colon;a&colon;t=Tutti \nDa virtutis	!LO:MO:null:mod=!LO&colon;TX&colon;a&colon;t=Tutti \nDa virtutis	!LO:MO:null:mod=!LO&colon;TX&colon;a&colon;t=Tutti \nDa virtutis	!LO:MO:mod=!LO&colon;TX&colon;a&colon;t=Tutti	!	!LO:MO:mod=!LO&colon;TX&colon;a&colon;t=Tutti	!	!LO:MO:mod=!LO&colon;TX&colon;a&colon;t=Tutti	!	!LO:MO:mod=!LO&colon;TX&colon;a&colon;t=Tutti	!	!LO:MO:null:mod=!LO&colon;TX&colon;a&colon;t=Tutti \nDa virtutis	!LO:MO:mod=!LO&colon;TX&colon;a&colon;t=Tutti \nDa virtutis
!LO:TX:b:t=Tutti	!	!	!	!	!LO:TX:b:t=tutt[i]	!	!LO:TX:b:t=tutti	!	!LO:TX:b:t=Tutt	!	!LO:TX:b:t=Tutti	!	!	!LO:TX:a:t=tutti
*	*	*	*	*	*	*	*	*	*	*ij	*	*	*	*
8D/L	.	8D/	8ff#\L	8aa\L	8D/	Da	8f#\	Da	8a\	Da	8dd\	Da	8a/L	8dd\L
8D/J	.	8D/J	8dd\J	8aa\J	8D/	vir-	8f#\	vir-	8a\	vir-	8dd\	vir-	8a/J	8dd\J
!	!	!	!	!	!LO:LB:g=original	!	!	!	!	!	!	!	!	!
=107	=107	=107	=107	=107	=107	=107	=107	=107	=107	=107	=107	=107	=107	=107
8G\L	.	8G\L	8gg\L	8bb\L	8G\	-tu-	8d\	-tu-	8b\	-tu-	8dd\	-tu-	8dd\L	8dd\L
8F#\	.	8F#\	8aa\J	8aa\J	8F#\	-tis	8A\	-tis	8a\	-tis	8dd\	-tis	8a\J	8dd\J
8G\	.	8G\	16bb\LL	16gg\LL	8G\	me-	8.B\	me-	8g\	me-	8.dd\	me-	8r	8r
.	.	.	16aa\	16ff#\	.	.	.	.	.	.	.	.	.	.
8E\J	.	8E\J	16gg\	16gg\	8E\	-ri-	.	.	(16a\LL	-ri-	.	.	8ee\	8ee\
.	.	.	16aa\JJ	16aa\JJ	.	.	16c#\	-ri-	16e\JJ)	.	16cc#X\	-ri-	.	.
!LO:LB:g=original	!	!	!	!	!	!	!LO:PB:g=original	!	!LO:LB:g=original	!	!LO:LB:g=original	!	!	!
8D\L	.	16D\LL	8ff#\L	8ff#\L	4D/	-tum	4d\	-tum	4f#\	-tum	4dd\	-tum	8dd\L	4ff#\
*	*	*	*	*	*	*	*	*	*	*Xij	*	*	*	*
.	.	16E\	.	.	.	.	.	.	.	.	.	.	.	.
16F#\L	.	16F#\	8ff#\J	8dd\J	.	.	.	.	.	.	.	.	8a\J	.
16G\JJ	.	16G\JJ	.	.	.	.	.	.	.	.	.	.	.	.
!	!	!	!	!	!	!	!	!	!	!	!	!	!LO:TX:a:t=P:problem=mixed beam	!
8A\L	.	8A\L	8cc#\L	8ee\L	8A\	Da	8e\	Da	8e\	Da	8cc#\	Da	8aa\L	8r
!LO:SIC:o=8G\J	!	!LO:SIC:o=8G\J	!	!	!LO:SIC:o=8G\	!	!	!	!	!	!	!	!	!
8G#	.	8G#	16b\L	16ff#\L	8G#	Sa-	8c#\	Sa-	8a\	Sa-	8ee\	ſa-	8a/J	8dd\
.	.	.	16cc#\JJ	16gg#X\JJ	.	.	.	.	.	.	.	.	.	.
=108	=108	=108	=108	=108	=108	=108	=108	=108	=108	=108	=108	=108	=108	=108
8F#\L	-3	8F#\L	8dd\L	16aa\LL	8F#\	-lu-	8A\	-lu-	8f#\	-lu-	8dd\	-lu-	4ff#\	4ff#\
.	.	.	.	16bb\	.	.	.	.	.	.	.	.	.	.
16C#\L	6	16C#\L	16ee\L	16ccc#\	8D\	-tis	8c#\	-tis	8e\	-tis	8cc#\	-tis	.	.
16D\JJ	.	16D\JJ	16ff#\JJ	16ddd\JJ	.	.	.	.	.	.	.	.	.	.
!LO:TX:a:t=P:problem=mixed beam	!	!LO:TX:a:t=P:problem=mixed beam	!	!	!	!	!	!	!	!	!	!	!	!
8E\L	4	8E\L	8.ee\L	8.bb\L	8.E\	e-	8B\	e-	8.e\	e-	8b\	e-	8r	8r
.	3	.	.	.	.	.	.	.	.	.	.	.	.	.
8EE/J	.	8EE/J	.	.	.	.	(16A/LL	-xi-	.	.	8ee\	-xi-	8ee\	8ee\
.	.	.	16dd\Jk	16aa\Jk	16EE/	-xi-	16G#X/JJ)	.	16e\	-xi-	.	.	.	.
8AA/L	.	8AA/L	4cc#\	4aa\	4AA/	-tum	4A/	-tum	4e\	-tum	4cc#\	-tum	4a/	4ee\
16BB/L	.	16BB/L	.	.	.	.	.	.	.	.	.	.	.	.
16C#/JJ	.	16C#/JJ	.	.	.	.	.	.	.	.	.	.	.	.
8D/L	.	8D\L	8ff#\L	8aa\L	8D/	Da	8A/	da	8e\	Da	8dd\	Da	8r	8r
8D/J	.	8D\J	8ff#\J	8aa\J	8D/	pe-	8A/	pe-	8f#\	pe-	8dd\	pe-	8ff#\	8dd\
=109	=109	=109	=109	=109	=109	=109	=109	=109	=109	=109	=109	=109	=109	=109
8GG/L	.	8GG/L	8dd\L	8gg\L	8G\	-ren-	8B\	-ren-	8g\	-ren-	8b\	-ren-	8gg\L	8dd\L
8GG/J	.	8GG/J	8b\J	8dd\J	8G\	-ne	8B\	-ne	8g\	-ne	8g\	-ne	8dd\J	8gg\J
4r	.	16D\LL	16dd\LL	16ff#\LL	4r	.	4r	.	4r	.	4r	.	16ff#\LL	16aa\LL
.	.	16D\	16ff#\	16aa\	.	.	.	.	.	.	.	.	16ff#\	16aa\
.	.	16D\	16ff#\	16aa\	.	.	.	.	.	.	.	.	16ff#\	16aa\
.	.	16D\JJ	16ff#\JJ	16aa\JJ	.	.	.	.	.	.	.	.	16ff#\JJ	16aa\JJ
!	!	!LO:TX:a:t=P:problem=mixed beam	!	!	!	!	!	!	!	!	!	!	!	!
4r	.	8G\L	8gg\L	8bb\L	4r	.	4r	.	4r	.	4r	.	8gg\L	8bb\L
.	.	8GG/J	8gg\	8bb\J	.	.	.	.	.	.	.	.	8gg\J	8bb\J
*	*	*	*	*	*	*ij	*	*ij	*	*ij	*	*ij	*	*
8AA/L	.	8AA/L	8cc#\	8aa\L	8A\	Da	8c#\	da	8e\	Da	8cc#\	Da	4r	4r
8AA/J	.	8AA/J	8aa\J	8ee\J	8A\	pe-	8c#\	pe-	8a\	pe-	8ee\	pe-	.	.
!	!	!	!	!	!LO:LB:g=original	!	!	!	!	!	!	!	!LO:LB:g=original	!LO:LB:g=original
=110	=110	=110	=110	=110	=110	=110	=110	=110	=110	=110	=110	=110	=110	=110
8D/L	.	8D/L	8ff#\L	8dd\L	8D/	-ren-	8A\	-ren-	8f#\	-ren-	8dd\	-ren-	4r	4r
8D/J	.	8D/J	8dd\J	8a\J	8D/	-ne	8A\	-ne	8d\	-ne	8dd\	-ne	.	.
*	*	*	*	*	*	*Xij	*	*Xij	*	*Xij	*	*Xij	*	*
!	!	!LO:TX:a:t=P:problem=mixed beam	!	!	!	!	!	!	!	!	!	!	!	!
4r	.	16A\LL	16cc#\LL	16ee\LL	4r	.	4r	.	4r	.	2r	.	16a/LL	16ee\LL
.	.	16A\	16cc#\	16ee\	.	.	.	.	.	.	.	.	16a/	16ee\
.	.	16AA/	16cc#\	16ee\	.	.	.	.	.	.	.	.	16a/	16ee\
.	.	16AA/JJ	16cc#\JJ	16ee\JJ	.	.	.	.	.	.	.	.	16a/JJ	16ee\JJ
4r	.	8D\L	8dd\L	8ff#\L	4r	.	4r	.	4r	.	.	.	8dd\L	8ff#\L
.	.	8D\J	8dd\J	8ff#\J	.	.	.	.	.	.	.	.	8dd\J	8ff#\J
8d\L	.	8d\L	16ff#\LL	16aa\LL	8d\	Da	8f#\	da	8f#\	Da	8a\	Da	4r	4r
.	.	.	16gg\	16bb\	.	.	.	.	.	.	.	.	.	.
8c#\J	.	8c#\J	16ff#\	16aa\	8c#\	pe-	8A/	pe-	8a\	pe-	(16b\LL	pe-	.	.
.	.	.	16ee\JJ	16gg\JJ	.	.	.	.	.	.	16cc#\JJ)	.	.	.
!	!	!	!	!	!	!	!	!	!	!	!	!	!	!LO:SI:s:t=:v:wymazane takty z notatką "nie ruszać tego niech tak będzie"
!	!	!	!	!	!	!	!LO:LB:g=original	!	!LO:LB:g=original	!	!LO:LB:g=original	!	!	!
=111	=111	=111	=111	=111	=111	=111	=111	=111	=111	=111	=111	=111	=111	=111
!	!	!	!	!	!	!	!	!	!	!	!	!	!	!LO:TX:a:t=iedna:mod=
8B\L	6\	8B\L	8dd\L	8ff#\L	8B\	-ren-	8B\	-ren-	8g#X\	-ren-	8dd\	-ren-	1r	1r
8A\J	.	8A\J	8ee\J	8aa\	8A\	-ne	8c#\	-ne	8a\	-ne	8cc#\	-ne	.	.
!LO:TX:a:t=P:problem=mixed beam	!	!LO:TX:a:t=P:problem=mixed beam	!	!	!	!	!	!	!	!	!	!	!	!
8E\L	.	8E\L	16b\LL	8.aa\	8.E\	gau-	8.B\	gau-	8.a\	gau-	8ee\	gau-	.	.
.	.	.	16dd\	.	.	.	.	.	.	.	.	.	.	.
8EE/J	.	8EE/J	16cc#\	.	.	.	.	.	.	.	8b\	-di-	.	.
.	.	.	16b\JJ	16gg#X\Jk	16E\	-di-	16A\	-di-	16g#X\	-di-	.	.	.	.
4AA/	.	16AA/LL	16a\LL	16aa\LL	4AA/	-um	4A/	-um	4a\	-um	4cc#\	-um	.	.
.	.	16BB/	16cc#\	16ee\	.	.	.	.	.	.	.	.	.	.
.	.	16C#/	16cc#\	16ee\	.	.	.	.	.	.	.	.	.	.
.	.	16D/JJ	16cc#\JJ	16ee\JJ	.	.	.	.	.	.	.	.	.	.
4r	.	8E\L	16b\LL	16ee\LL	4r	.	4r	.	4r	.	4r	.	.	.
.	.	.	16dd\	16ee\	.	.	.	.	.	.	.	.	.	.
.	.	8EE/J	16cc#\	16ee\	.	.	.	.	.	.	.	.	.	.
.	.	.	16b\JJ	16ee\JJ	.	.	.	.	.	.	.	.	.	.
!	!	!LO:LB:g=original	!	!	!	!	!	!	!	!	!	!	!	!
=112	=112	=112	=112	=112	=112	=112	=112	=112	=112	=112	=112	=112	=112	=112
4r	.	16AA/LL	8cc#\L	8ee\L	4r	.	4r	.	4r	.	4r	.	4r	4r
.	.	16BB/	.	.	.	.	.	.	.	.	.	.	.	.
.	.	16C#/	8cc#\J	8a\J	.	.	.	.	.	.	.	.	.	.
.	.	16AA/JJ	.	.	.	.	.	.	.	.	.	.	.	.
!	!	!	!	!	!	!	!	!	!	!LO:MO:mod=Da	!	!	!	!
8D/L	.	8D\L	8ff#\L	8aa\L	8D/L	Da	8d\	Da	8f#\	da	8a\	Da	16ff#\LL	16aa\LL
.	.	.	.	.	.	.	.	.	.	.	.	.	16ff#\	16aa\
8D/J	.	8D\J	8ff#\J	8aa\J	8D/J	pe-	8d\	pe-	8f#\	pe-	8a\	pe-	16ff#\	16aa\
.	.	.	.	.	.	.	.	.	.	.	.	.	16ff#\JJ	16aa\JJ
8G\L	.	8G\L	8gg\L	8bb\L	8G\	-ren-	8d\	-ren-	8g\	-ren-	8b\	-ren-	8gg\L	8bb\L
8G\J	.	8G\J	16dd\L	8gg\J	8G\	-ne	8d\	-ne	8g\	-ne	8b\	-ne	8gg\J	8bb\J
.	.	.	16ee\JJ	.	.	.	.	.	.	.	.	.	.	.
!LO:TX:b:t=Verte Folium:mod=	!	!LO:TX:b:t=Verte Folium:mod=	!	!	!	!	!	!	!	!	!	!	!	!
4r	.	16F#\LL	16ff#\LL	8aa\L	4r	.	4r	.	4r	.	4r	.	8r	8r
.	.	16E\	16ee\	.	.	.	.	.	.	.	.	.	.	.
.	.	16F#\	16ff#\	16gg\L	.	.	.	.	.	.	.	.	16ff#\LL	16aa\LL
.	.	16D\JJ	16dd\JJ	16aa\JJ	.	.	.	.	.	.	.	.	16ee\JJ	16gg\JJ
!LO:PB:g=original	!	!	!	!	!	!	!	!	!	!	!	!	!	!LO:LB:g=original
=113	=113	=113	=113	=113	=113	=113	=113	=113	=113	=113	=113	=113	=113	=113
4r	.	16G\LL	8gg\L	8bb\L	4r	.	4r	.	4r	.	4r	.	8dd\L	8ff#\L
.	.	16F#\	.	.	.	.	.	.	.	.	.	.	.	.
.	.	16G\	8gg\J	8bb\J	.	.	.	.	.	.	.	.	16ee\L	16gg\L
.	.	16E\JJ	.	.	.	.	.	.	.	.	.	.	16dd\JJ	16ff#\JJ
!	!	!LO:TX:a:t=P:problem=mixed beam	!	!	!	!	!	!	!	!	!	!	!	!
*	*	*	*	*	*	*ij	*	*ij	*	*ij	*	*ij	*	*
!	!	!	!	!	!	!	!	!	!	!LO:MO:mod=Da	!	!	!	!
8A\L	.	8A\L	8aa\L	8ee\L	8A\	Da	8c#\	Da	8e\	da	8cc#\	Da	4a/	8.eeT\L
8A\J	.	8AA/J	8dd\J	8ee\J	8A\	pe-	8e\	pe-	8e\	pe-	8cc#\	pe-	.	.
.	.	.	.	.	.	.	.	.	.	.	.	.	.	16dd\Jk
8D/L	.	16D/LL	16dd\LL	16ff#\LL	8D/	-ren-	8d\	-ren-	8f#\	-ren-	8dd\	-ren-	8f#/L	4dd\
.	.	16C#/	16cc#\	16ee\	.	.	.	.	.	.	.	.	.	.
8D/J	.	16D/	16dd\	16ff#\	8D/	-ne	8A\	-ne	8f#\	-ne	8dd\	-ne	8d/J	.
*	*	*	*	*	*	*Xij	*	*Xij	*	*Xij	*	*Xij	*	*
.	.	16BB/JJ	16ff#\JJ	16dd\JJ	.	.	.	.	.	.	.	.	.	.
4r	.	16C#/LL	16ee\LL	16aa\LL	4r	.	4r	.	4r	.	4r	.	8f#/L	8r
.	.	16AA/	16dd\	16gg\	.	.	.	.	.	.	.	.	.	.
.	.	16BB/	16ee\	16aa\	.	.	.	.	.	.	.	.	8a/J	8ee\
.	.	16C#/JJ	16cc#\JJ	16ee\JJ	.	.	.	.	.	.	.	.	.	.
!	!	!	!	!	!	!	!	!	!	!	!	!	!LO:LB:g=original	!
=114	=114	=114	=114	=114	=114	=114	=114	=114	=114	=114	=114	=114	=114	=114
8D\L	.	8D\L	8dd\L	16ff#\LL	4r	.	4r	.	4r	.	4r	.	8dd\L	4ff#\
.	.	.	.	16gg\	.	.	.	.	.	.	.	.	.	.
16D\L	.	8E\	8a\J	16ff#\	.	.	.	.	.	.	.	.	8a\	.
16E\JJ	.	.	.	16ee\JJ	.	.	.	.	.	.	.	.	.	.
*	*	*	*	*	*	*	*	*	*	*ij	*	*	*	*
!	!	!	!	!	!	!	!	!	!	!LO:MO:mod=Da	!	!	!	!
8F#\L	.	8F#\	16ff#\LL	16dd\LL	8F#\	Da	8d\	da	8a\	da	8a\	Da	8dd\	8r
.	.	.	16ff#\	16aa\	.	.	.	.	.	.	.	.	.	.
8D\J	.	8D\J	16ee\	16gg\	8D\	pe-	8A\	pe-	8f#\	pe-	8dd\	pe-	8ff#\J	8aa\
.	.	.	16ff#\JJ	16aa\JJ	.	.	.	.	.	.	.	.	.	.
!LO:TX:a:t=P:problem=mixed beam	!	!	!	!	!	!	!	!	!	!	!	!	!	!
!	!	!	!	!	!LO:LB:g=original	!	!	!	!	!	!	!	!	!
8G\L	.	8G\L	16gg\LL	16bb\LL	8G\	-ren-	8B\	-ren-	16b\LL	-ren-	8b\	-ren-	4gg\	4bb\
.	.	.	16ff#\	16aa\	.	.	.	.	16a\JJ	.	.	.	.	.
8E\	.	16F#\L	16ee\	16gg\	8E\	-ne	8B\	-ne	16g\LL	-ne	8ee\	-ne	.	.
.	.	16G\JJ	16dd\JJ	16ff#\JJ	.	.	.	.	16f#\JJ	.	.	.	.	.
*	*	*	*	*	*	*	*	*	*	*Xij	*	*	*	*
8A\	.	16A\LL	16cc#\LL	16ee\LL	8.A\	gau-	8.A\	gau-	8.e\	gau-	8.cc#\	gau-	8r	8r
.	.	16A\	16ee\	16aa\	.	.	.	.	.	.	.	.	.	.
8AA/J	.	16A\	16cc#\	16aa\	.	.	.	.	.	.	.	.	16a/LL	8ee\
.	.	16A\JJ	16a\JJ	16ee\JJ	16AA/	-di-	16A\	-di-	16a\	-di-	16cc#\	-di-	16a/JJ	.
!	!	!	!	!	!	!	!LO:LB:g=original	!	!LO:LB:g=original	!	!LO:LB:g=original	!	!	!
=115	=115	=115	=115	=115	=115	=115	=115	=115	=115	=115	=115	=115	=115	=115
4D/	.	16D\LL	16dd\LL	8ff#\L	4D/	-um	4A\	-um	4f#\	-u[m]	4dd\	-um	8dd\L	4ff#\
.	.	16E\	16aa\	.	.	.	.	.	.	.	.	.	.	.
.	.	16F#\	16gg\	16ee\L	.	.	.	.	.	.	.	.	8a\J	.
.	.	16G\JJ	16ff#\JJ	16dd\JJ	.	.	.	.	.	.	.	.	.	.
!	!	!LO:TX:a:t=P:problem=mixed beam	!	!	!	!	!	!	!	!	!	!	!	!
8r	.	8A\L	16ee\LL	8cc#\L	4r	.	8r	.	8r	.	4r	.	8f#/L	8r
.	.	.	16ee\	.	.	.	.	.	.	.	.	.	.	.
8AA/	.	8AA/J	16dd\	16b\L	.	.	16f#\LL	pe-	16a\LL	pe-	.	.	8a/J	8ee\
.	.	.	16ee\JJ	16cc#\JJ	.	.	16e\JJ	.	16g\JJ	.	.	.	.	.
8D/L	.	8D/L	8ff#\L	8dd\L	4r	.	8d\	-ren-	8f#\	-ren-	4r	.	8dd\L	8ff#\L
8GG/J	.	8GG/J	8gg\J	8bb\J	.	.	8B\	-ne	8b\	-ne	.	.	16ee\L	16gg\L
.	.	.	.	.	.	.	.	.	.	.	.	.	16dd\JJ	16ff#\JJ
*	*	*	*	*	*	*ij	*	*	*	*	*	*	*	*
4AA/	.	8AA/L	16cc#\LL	8ee\L	8AA/	Da	8e\	gau-	8.a\	gau-	8dd\L	Da	4a/	8.ee\L
.	.	.	16dd\	.	.	.	.	.	.	.	.	.	.	.
.	.	8AA/J	16b\	16dd\L	8AA/	pe-	16f#\LL	-di-	.	.	8cc#\J	pe-	.	.
.	.	.	16cc#\JJ	16ee\JJ	.	.	16e\JJ	.	16g\	-di-	.	.	.	16dd\Jk
!	!	!LO:LB:g=original	!	!	!	!	!	!	!	!	!	!	!	!
=116	=116	=116	=116	=116	=116	=116	=116	=116	=116	=116	=116	=116	=116	=116
!LO:TX:a:t=P:problem=mixed beam	!	!	!	!	!	!	!	!	!	!	!LO:SIC:o=8b\L	!	!	!
8D\L	.	16D\LL	16dd\LL	16ff#\LL	8D\	-ren-	4d\	-um	4f#\	-um	8b	-ren-	8f#/L	8dd\L
.	.	16D\	16cc#\	16dd\	.	.	.	.	.	.	.	.	.	.
8F#\	.	16D\	16dd\	16ff#\	8F#\	-ne	.	.	.	.	8dd\	-ne	16f#/L	16a\L
.	.	16D\JJ	16ee\JJ	16gg\JJ	.	.	.	.	.	.	.	.	16f#/JJ	16a\JJ
!	!	!	!	!	!	!	!	!	!	!	!	!	!	!LO:SIC:s:t=:v: instrument naturalny, trudno zaproponować satysfakconujące rozwiązanie
8A\	.	16A\LL	16ff#\LL	16aa\LL	8A\	gau-	8.A/	gau-	8.e\	gau-	8.dd\	gau-	16d/LL	16f#/LL
.	.	16A\	16ee\	16gg\	.	.	.	.	.	.	.	.	16d/	16f#/
8AA/J	.	16A\	16dd\	16aa\	8AA/	-di-	.	.	.	.	.	.	16d/	16f#/
.	.	16A\JJ	16cc#\JJ	16ee\JJ	.	.	16G/	-di-	16d\	-di-	16cc#\Jk	-di-	16d/JJ	16f#/JJ
!	!	!	!	!	!	!	!	!	!	!	!	!	!	!LO:LB:g=original
!	!	!	!LO:TX:a:t=P:problem=mixed beam	!	!	!	!	!	!	!	!	!	!LO:SIC:o=8B/L	!
4D\	.	16D/LL	16dd/LL	16ff#\LL	4D\	-um	4F#/	-um	4d\	-u[m]	4dd\	-um	8G	16d/LL
*	*	*	*	*	*	*Xij	*	*	*	*	*	*	*	*
.	.	16D/	16f#/	16a\	.	.	.	.	.	.	.	.	.	16d/
.	.	16D/	16f#/	16a\	.	.	.	.	.	.	.	.	16B/L	16f#/
.	.	16D/JJ	16f#/JJ	16a\JJ	.	.	.	.	.	.	.	.	16B/JJ	16f#/JJ
!	!	!	!	!	!	!	!	!	!	!	!	!	!	!LO:SIC:s:t=:v: podwójna kreska
4r	.	8DD/L	16f#/LL	16a/LL	4r	.	4r	.	8r	.	4r	.	4B/	4d/
.	.	.	16d/	16f#/	.	.	.	.	.	.	.	.	.	.
.	.	8DD/J	16d/	16f#/	.	.	.	.	8r	.	.	.	.	.
.	.	.	16d/JJ	16f#/JJ	.	.	.	.	.	.	.	.	.	.
!	!	!	!	!	!	!	!	!	!	!	!	!	!LO:LB:g=original	!
=117	=117	=117	=117	=117	=117	=117	=117	=117	=117	=117	=117	=117	=117	=117
!	!	!	!LO:SIC:s:t=:v: metrum alla breve	!LO:SIC:s:t=:v: powtórzone metrum common time	!	!	!	!	!	!	!	!	!LO:SIC:s:t=:v: metrum alla breve	!LO:SIC:s:t=:v: powtórzone metrum common time
2.G\	.	4r	2.dd\	2.bb\	2.G\	Al-	4r	.	4r	.	4r	.	4r	4r
.	.	2G\	.	.	.	.	2d\	Al-	2g\	Al-	2b\	Al-	2dd\	2dd\
4F#\	.	4F#\	4ff#\	4aa\	4F#\	-le-	4d\	-le-	4a\	-le-	4b\	-le-	4dd\	4ff#\
=118	=118	=118	=118	=118	=118	=118	=118	=118	=118	=118	=118	=118	=118	=118
1A\	.	2A\	2ee\	2aa\	1A\	-lu-	2.d\	-lu-	1e\	-lu-	1a\	-lu-	2a/	2ee\
.	.	2AA/	2a/	2ee\	.	.	.	.	.	.	.	.	2ee\	2a/
.	.	.	.	.	.	.	4c#\	.	.	.	.	.	.	.
=119	=119	=119	=119	=119	=119	=119	=119	=119	=119	=119	=119	=119	=119	=119
!	!	!	!	!	!	!	!	!	!	!	!	!	!LO:SIC:s:t=:v: słabo czytelna adnotacja (placet?)	!
1D\	.	1D\;	1a/	1ff#\	1D\	-ia	1d\	-ia	1f#X\;	-ia	1a\	-ia	1dd\	1f#/
!	!	!	!	!	!	!	!	!	!LO:TX:b:t=Kto tęn głos Spiwac bęndʒie\nNiech ʒe go P. Bóg błogosławi wszędzie:mod=Kto ten głos śpiewać bęndzie\nNiech że go Pan Bóg \nbłogosławi wszędzie.	!	!	!	!	!
==	==	==	==	==	==	==	==	==	==	==	==	==	==	==
*-	*-	*-	*-	*-	*-	*-	*-	*-	*-	*-	*-	*-	*-	*-
!!!system-decoration: [(s1,s2)][(s3,s4,s5,s6)][(s7,s8,s9)][(s10)]
!!!ENC-modern: Leszek Kubiak
!!!END-modern: 2022-07-27
!!!filter-modern: sic -sq | tie -s | autostem -r | shed -e "s/^(\d+[\/\\]right)/$1yy/I; s/^(\d+[\/\\]left)/$1yy/I" | shed -k -e "s/yy//" | shed -e "s/TX(.*):t=P:/tx$1:t=P:/LG" | modori -m | humtr -p
!!!ENC: Kamil Watkowski
!!!END: 2020-04-20
!!!EED: Leszek Kubiak
!!!EEV: 2020-10-15
